!!!COM: Haydn, Franz Joseph
!!!OPR: Symphony in D Major
!!!OTL: Affettuoso 
!!!OMV: 2
!!!SCT: H I:96
!!!SCA: Thematisch-bibliographisches Werkevererzeichnis (A. van Hoboken)
!!!YOR: Dover Edition
!!!EED: Frances Bennion
!!!ENC: Frances Bennion
!!!CDT: 1732/3/31/-1809/5/31/
!!!OCY: Österreich
!!!YEC: Copyright (c) 1994, 2000 Center for Computer Assisted Research in the Humanities
!!!YEM: Rights to all derivative editions reserved.
!!!YEM: Refer to licensing agreement for further details.
!!!YEN: United States of America
**kern	**kern	**kern	**kern	**kern	**kern	**kern	**kern	**kern	**kern	**kern	**kern	**kern	**kern	**kern	**kern	**kern	**kern
*k[f#]	*k[]	*k[]	*k[f#]	*k[f#]	*k[f#]	*k[f#]	*k[f#]	*k[f#]	*k[f#]	*k[f#]	*k[f#]	*k[f#]	*k[f#]	*k[f#]	*k[]	*k[]	*k[]
*G:	*G:	*G:	*G:	*G:	*G:	*G:	*G:	*G:	*G:	*G:	*G:	*G:	*G:	*G:	*G:	*G:	*G:
*clefF	*clefF	*clefF4	*clefF	*clefF	*clefF	*clefF	*clefC3	*clefF4	*clefF4	*clefF	*clefF	*clefF	*clefF4	*clefF4	*clefF	*clefF	*clefF
*M6/8	*M6/8	*M6/8	*M6/8	*M6/8	*M6/8	*M6/8	*M6/8	*M6/8	*M6/8	*M6/8	*M6/8	*M6/8	*M6/8	*M6/8	*M6/8	*M6/8	*M6/8
*tb96	*tb96	*tb96	*tb96	*tb96	*tb96	*tb96	*tb96	*tb96	*tb96	*tb96	*tb96	*tb96	*tb96	*tb96	*tb96	*tb96	*tb96
=0-	=0-	=0-	=0-	=0-	=0-	=0-	=0-	=0-	=0-	=0-	=0-	=0-	=0-	=0-	=0-	=0-	=0-
3..r	3..r	3..r	4.r	4.r	3..r	3..r	3..r	3..r	3..r	3..r	3..r	4.r	3..r	3..r	3..r	3..r	3..r
.	.	.	4r	4r	.	.	.	.	.	.	.	4r	.	.	.	.	.
24r	24r	24r	.	.	24r	24r	24r	24r	24r	24r	24r	.	24r	24r	24r	24r	24r
8r	8r	8r	24d	24d	8r	8r	8r	8r	8r	8r	8r	8r	8r	8r	8r	8r	8r
.	.	.	24g	24g	.	.	.	.	.	.	.	.	.	.	.	.	.
.	.	.	24b	24b	.	.	.	.	.	.	.	.	.	.	.	.	.
=1	=1	=1	=1	=1	=1	=1	=1	=1	=1	=1	=1	=1	=1	=1	=1	=1	=1
2.r	2.r	2.r	8dd	8dd	8d 8b	8d 8b	8G	8G	8G	2.r	2.r	4.r	2.r	2.r	2.r	2.r	2.r
.	.	.	8r	8r	8r	8r	8r	8r	8r	.	.	.	.	.	.	.	.
.	.	.	32dd	32dd	8f# 8c	8f# 8c	8c	8D	8D	.	.	.	.	.	.	.	.
.	.	.	32cc	32cc	.	.	.	.	.	.	.	.	.	.	.	.	.
.	.	.	32b	32b	.	.	.	.	.	.	.	.	.	.	.	.	.
.	.	.	32a	32a	.	.	.	.	.	.	.	.	.	.	.	.	.
.	.	.	8g	8g	8g 8B	8g 8B	8B	8G	8G	.	.	4.r	.	.	.	.	.
.	.	.	8r	8r	8r	8r	8r	8r	8r	.	.	.	.	.	.	.	.
.	.	.	32aa	32aa	8d	8d	8G	8BB	8BB	.	.	.	.	.	.	.	.
.	.	.	32gg	32gg	.	.	.	.	.	.	.	.	.	.	.	.	.
.	.	.	32ff#	32ff#	.	.	.	.	.	.	.	.	.	.	.	.	.
.	.	.	32gg	32gg	.	.	.	.	.	.	.	.	.	.	.	.	.
=2	=2	=2	=2	=2	=2	=2	=2	=2	=2	=2	=2	=2	=2	=2	=2	=2	=2
2.r	2.r	2.r	8ee	8ee	8e	8e	8G	8C	8C	2.r	2.r	4.r	2.r	2.r	2.r	2.r	2.r
.	.	.	8cc	8cc	8r	8r	8r	8r	8r	.	.	.	.	.	.	.	.
.	.	.	8a	8a	8c	8c	8e	8C	8C	.	.	.	.	.	.	.	.
.	.	.	8g	8g	8B	8B	8d	8D	8D	.	.	4.r	.	.	.	.	.
.	.	.	8f#	8f#	8A	8A	4r	4r	4r	.	.	.	.	.	.	.	.
.	.	.	24d	24d	8r	8r	.	.	.	.	.	.	.	.	.	.	.
.	.	.	24f#	24f#	.	.	.	.	.	.	.	.	.	.	.	.	.
.	.	.	24a	24a	.	.	.	.	.	.	.	.	.	.	.	.	.
=3	=3	=3	=3	=3	=3	=3	=3	=3	=3	=3	=3	=3	=3	=3	=3	=3	=3
2.r	2.r	2.r	8cc	8cc	8f#	8f#	8A	8D	8D	2.r	2.r	4.r	2.r	2.r	2.r	2.r	2.r
.	.	.	8r	8r	8r	8r	8r	8r	8r	.	.	.	.	.	.	.	.
.	.	.	32b	32b	8d	8d	8F#	8F#	8F#	.	.	.	.	.	.	.	.
.	.	.	32a	32a	.	.	.	.	.	.	.	.	.	.	.	.	.
.	.	.	32g	32g	.	.	.	.	.	.	.	.	.	.	.	.	.
.	.	.	32a	32a	.	.	.	.	.	.	.	.	.	.	.	.	.
.	.	.	8b	8b	8d	8d	8G	8G	8G	.	.	4.r	.	.	.	.	.
.	.	.	16.r	16.r	8r	8r	8r	8r	8r	.	.	.	.	.	.	.	.
.	.	.	32a	32a	.	.	.	.	.	.	.	.	.	.	.	.	.
.	.	.	16.g	16.g	8d	8d	8G	8BB	8BB	.	.	.	.	.	.	.	.
.	.	.	32f#	32f#	.	.	.	.	.	.	.	.	.	.	.	.	.
=4	=4	=4	=4	=4	=4	=4	=4	=4	=4	=4	=4	=4	=4	=4	=4	=4	=4
2.r	2.r	2.r	16.e	16.e	8e	8e	8G	8C	8C	2.r	2.r	4.r	2.r	2.r	2.r	2.r	2.r
.	.	.	32d	32d	.	.	.	.	.	.	.	.	.	.	.	.	.
.	.	.	16.c	16.c	8r	8r	8r	8r	8r	.	.	.	.	.	.	.	.
.	.	.	32B	32B	.	.	.	.	.	.	.	.	.	.	.	.	.
.	.	.	16.A	16.A	8A	8A	8F#	8D	8D	.	.	.	.	.	.	.	.
.	.	.	32d	32d	.	.	.	.	.	.	.	.	.	.	.	.	.
.	.	.	8G	8G	8G	8G	8G	8GG	8GG	.	.	4.r	.	.	.	.	.
.	.	.	8r	8r	4r	4r	4r	4r	4r	.	.	.	.	.	.	.	.
.	.	.	24d	24d	.	.	.	.	.	.	.	.	.	.	.	.	.
.	.	.	24g	24g	.	.	.	.	.	.	.	.	.	.	.	.	.
.	.	.	24b	24b	.	.	.	.	.	.	.	.	.	.	.	.	.
=5	=5	=5	=5	=5	=5	=5	=5	=5	=5	=5	=5	=5	=5	=5	=5	=5	=5
24dd	2.r	2.r	8dd	8dd	8d 8b	8d 8b	8G	8G	8G	2.r	4.r	4.r	2.r	2.r	2.r	2.r	2.r
24gg	.	.	.	.	.	.	.	.	.	.	.	.	.	.	.	.	.
24bb	.	.	.	.	.	.	.	.	.	.	.	.	.	.	.	.	.
8ddd	.	.	8r	8r	8r	8r	8r	8r	8r	.	.	.	.	.	.	.	.
2r	.	.	32dd	32dd	8f# 8c	8f# 8c	8c	8D	8D	.	.	.	.	.	.	.	.
.	.	.	32cc	32cc	.	.	.	.	.	.	.	.	.	.	.	.	.
.	.	.	32b	32b	.	.	.	.	.	.	.	.	.	.	.	.	.
.	.	.	32a	32a	.	.	.	.	.	.	.	.	.	.	.	.	.
.	.	.	8g	8g	8g 8B	8g 8B	8B	8G	8G	.	24g	4.r	.	.	.	.	.
.	.	.	.	.	.	.	.	.	.	.	24b	.	.	.	.	.	.
.	.	.	.	.	.	.	.	.	.	.	24dd	.	.	.	.	.	.
.	.	.	8r	8r	8r	8r	8r	8r	8r	.	8gg	.	.	.	.	.	.
.	.	.	32aa	32aa	8d	8d	8G	8BB	8BB	.	8r	.	.	.	.	.	.
.	.	.	32gg	32gg	.	.	.	.	.	.	.	.	.	.	.	.	.
.	.	.	32ff#	32ff#	.	.	.	.	.	.	.	.	.	.	.	.	.
.	.	.	32gg	32gg	.	.	.	.	.	.	.	.	.	.	.	.	.
=6	=6	=6	=6	=6	=6	=6	=6	=6	=6	=6	=6	=6	=6	=6	=6	=6	=6
24dd	2.r	2.r	8ee	8ee	8e	8e	8G	8C	8C	2.r	2.r	4.r	4.r	2.r	2.r	2.r	2.r
24aa	.	.	.	.	.	.	.	.	.	.	.	.	.	.	.	.	.
24ccc	.	.	.	.	.	.	.	.	.	.	.	.	.	.	.	.	.
8eee	.	.	8cc	8cc	8r	8r	8r	8r	8r	.	.	.	.	.	.	.	.
2r	.	.	8a	8a	8c	8c	8e	8C	8C	.	.	.	.	.	.	.	.
.	.	.	8g	8g	8B	8B	8d	8D	8D	.	.	4.r	24D	.	.	.	.
.	.	.	.	.	.	.	.	.	.	.	.	.	24G	.	.	.	.
.	.	.	.	.	.	.	.	.	.	.	.	.	24B	.	.	.	.
.	.	.	8f#	8f#	8A	8A	4r	4r	4r	.	.	.	8d	.	.	.	.
.	.	.	24d	24d	8r	8r	.	.	.	.	.	.	8r	.	.	.	.
.	.	.	24f#	24f#	.	.	.	.	.	.	.	.	.	.	.	.	.
.	.	.	24a	24a	.	.	.	.	.	.	.	.	.	.	.	.	.
=7	=7	=7	=7	=7	=7	=7	=7	=7	=7	=7	=7	=7	=7	=7	=7	=7	=7
4.r	2.r	2.r	8cc	8cc	8f#	8f#	8A	8D	8D	2.r	24cc	4.r	2.r	2.r	2.r	2.r	2.r
.	.	.	.	.	.	.	.	.	.	.	24ff#	.	.	.	.	.	.
.	.	.	.	.	.	.	.	.	.	.	24aa	.	.	.	.	.	.
.	.	.	8r	8r	8r	8r	8r	8r	8r	.	8ccc	.	.	.	.	.	.
.	.	.	32b	32b	8d	8d	8F#	8F#	8F#	.	3r	.	.	.	.	.	.
.	.	.	32a	32a	.	.	.	.	.	.	.	.	.	.	.	.	.
.	.	.	32g	32g	.	.	.	.	.	.	.	.	.	.	.	.	.
.	.	.	32a	32a	.	.	.	.	.	.	.	.	.	.	.	.	.
24b	.	.	8b	8b	8d	8d	8G	8G	8G	.	.	4.r	.	.	.	.	.
24dd	.	.	.	.	.	.	.	.	.	.	.	.	.	.	.	.	.
24gg	.	.	.	.	.	.	.	.	.	.	.	.	.	.	.	.	.
8bb	.	.	16.r	16.r	8r	8r	8r	8r	8r	.	.	.	.	.	.	.	.
.	.	.	.	.	.	.	.	.	.	.	96r	.	.	.	.	.	.
.	.	.	32a	32a	.	.	.	.	.	.	32aa	.	.	.	.	.	.
8r	.	.	16.g	16.g	8d	8d	8G	8BB	8BB	.	16.gg	.	.	.	.	.	.
.	.	.	32f#	32f#	.	.	.	.	.	.	32ff#	.	.	.	.	.	.
=8	=8	=8	=8	=8	=8	=8	=8	=8	=8	=8	=8	=8	=8	=8	=8	=8	=8
3..r	3..r	3..r	16.e	16.e	8e	8e	8G	8C	8C	3..r	16.ee	4.r	3..r	3..r	3..r	3..r	3..r
.	.	.	32d	32d	.	.	.	.	.	.	32dd	.	.	.	.	.	.
.	.	.	16.c	16.c	8r	8r	8r	8r	8r	.	16.cc	.	.	.	.	.	.
.	.	.	32B	32B	.	.	.	.	.	.	32b	.	.	.	.	.	.
.	.	.	16.A	16.A	8A	8A	8F#	8D	8D	.	16.a	.	.	.	.	.	.
.	.	.	32d	32d	.	.	.	.	.	.	32dd	.	.	.	.	.	.
.	.	.	8G	8G	8G	8G	8G	8GG	8GG	.	8g	4r	.	.	.	.	.
.	.	.	8r	8r	8r	8r	8r	8r	8r	.	8r	.	.	.	.	.	.
24r	24r	24r	.	.	.	.	.	.	.	24r	.	.	24r	24r	24r	24r	24r
24dd	24dd	24D	24dd	24dd	24d	24d	24d	24D	24D	24dd	24dd	24d	24D	24D	24dd	24g	24dd
24ff#	24dd	24D	24ff#	24ff#	24f#	24f#	24f#	24F#	24F#	24ff#	24ff#	24f#	24F#	24F#	24dd	24g	24dd
24aa	24dd	24D	24aa	24aa	24a	24a	24a	24A	24A	24aa	24aa	24a	24A	24A	24dd	24g	24dd
=9	=9	=9	=9	=9	=9	=9	=9	=9	=9	=9	=9	=9	=9	=9	=9	=9	=9
8ccc	8dd	8D	8ccc	8ccc	8cc	8cc	8cc	8c	8c	8ccc	8ccc	8cc	8c	8c	8dd	8g	8dd
8r	8r	8r	8r	8r	8r	8r	8r	8r	8r	8r	8r	8r	8r	8r	8r	8r	8r
24aa	24dd	24D	24dd 24aa	24dd 24aa	24ff#	24ff#	24d	24D	24D	24ff#	24aa	24ff#	24D	24D	24dd	24g	24dd
24aa	24dd	24D	24dd 24aa	24dd 24aa	24ff#	24ff#	24d	24D	24D	24ff#	24aa	24ff#	24D	24D	24dd	24g	24dd
24aa	24dd	24D	24dd 24aa	24dd 24aa	24ff#	24ff#	24d	24D	24D	24ff#	24aa	24ff#	24D	24D	24dd	24g	24dd
8bb	8dd	8GG	8bb 8dd	8bb 8dd	8gg	8gg	8d	8GG	8GG	8gg	8bb	8gg	8G	8G	8ee	8cc	8dd
4r	4r	4r	8r	8r	8r	8r	8r	8r	4r	4r	4r	4r	4r	4r	4r	4r	4r
.	.	.	24b	24b	8ee	8ee	8g	8g	.	.	.	.	.	.	.	.	.
.	.	.	24ee	24ee	.	.	.	.	.	.	.	.	.	.	.	.	.
.	.	.	24bb	24bb	.	.	.	.	.	.	.	.	.	.	.	.	.
=10	=10	=10	=10	=10	=10	=10	=10	=10	=10	=10	=10	=10	=10	=10	=10	=10	=10
2.r	2.r	2.r	8bb	8bb	4dd#	4dd#	4f#	4f#	2.r	2.r	2.r	4.r	2.r	2.r	2.r	2.r	2.r
.	.	.	8aa	8aa	.	.	.	.	.	.	.	.	.	.	.	.	.
.	.	.	24b	24b	8ee	8ee	8e	8e	.	.	.	.	.	.	.	.	.
.	.	.	24ee	24ee	.	.	.	.	.	.	.	.	.	.	.	.	.
.	.	.	24gg	24gg	.	.	.	.	.	.	.	.	.	.	.	.	.
.	.	.	8gg	8gg	8ee	8ee	4B	4B	.	.	.	4.r	.	.	.	.	.
.	.	.	8ff#	8ff#	8dd#	8dd#	.	.	.	.	.	.	.	.	.	.	.
.	.	.	24b	24b	16.g	16.g	16.e	16.e	.	.	.	.	.	.	.	.	.
.	.	.	24gg	24gg	.	.	.	.	.	.	.	.	.	.	.	.	.
.	.	.	24bb	24bb	.	.	.	.	.	.	.	.	.	.	.	.	.
.	.	.	.	.	32gg	32gg	32d	32d	.	.	.	.	.	.	.	.	.
=11	=11	=11	=11	=11	=11	=11	=11	=11	=11	=11	=11	=11	=11	=11	=11	=11	=11
3..r	2.r	2.r	8bb	8bb	8gg	8gg	4c#	4.c#	2.r	3..r	3..r	4.r	2.r	2.r	2.r	2.r	2.r
.	.	.	8aa	8aa	8ff#	8ff#	.	.	.	.	.	.	.	.	.	.	.
.	.	.	24a	24a	8ee	8ee	8a	.	.	.	.	.	.	.	.	.	.
.	.	.	24ee	24ee	.	.	.	.	.	.	.	.	.	.	.	.	.
.	.	.	24gg	24gg	.	.	.	.	.	.	.	.	.	.	.	.	.
.	.	.	8gg	8gg	8ee	8ee	8a	4d	.	.	.	4.r	.	.	.	.	.
.	.	.	8ff#	8ff#	8dd	8dd	4r	.	.	.	.	.	.	.	.	.	.
24r	.	.	.	.	.	.	.	.	.	24r	24r	.	.	.	.	.	.
24dd	.	.	24dd	24dd	8r	8r	.	8r	.	24dd	24dd	.	.	.	.	.	.
24ff#	.	.	24ff#	24ff#	.	.	.	.	.	24ff#	24ff#	.	.	.	.	.	.
24aa	.	.	24aa	24aa	.	.	.	.	.	24aa	24aa	.	.	.	.	.	.
=12	=12	=12	=12	=12	=12	=12	=12	=12	=12	=12	=12	=12	=12	=12	=12	=12	=12
[4.ddd	[2.dd	4D	24ddd	24ddd	24d	24d	24f#	24F#	24F#	[4.ddd	24dd	[4.dd	24F#	24F#	[4.g	[4.g	[2.dd
.	.	.	24ddd	24ddd	24c#	24c#	24e	24E	24E	.	24cc#	.	24E	24E	.	.	.
.	.	.	24ddd	24ddd	24d	24d	24f#	24F#	24F#	.	24dd	.	24F#	24F#	.	.	.
.	.	.	24ddd	24ddd	24e	24e	24g	24G	24G	.	24ee	.	24G	24G	.	.	.
.	.	.	24ddd	24ddd	24d	24d	24f#	24F#	24F#	.	24dd	.	24F#	24F#	.	.	.
.	.	.	24ddd	24ddd	24e	24e	24g	24G	24G	.	24ee	.	24G	24G	.	.	.
.	.	8r	24ddd	24ddd	24f#	24f#	24a	24A	24A	.	24ff#	.	24A	24A	.	.	.
.	.	.	24ddd	24ddd	24e	24e	24g	24G	24G	.	24ee	.	24G	24G	.	.	.
.	.	.	24ddd	24ddd	24f#	24f#	24a	24A	24A	.	24ff#	.	24A	24A	.	.	.
24ddd]	.	8D	4.ddd	4.ddd	24g	24g	8b	8B	8B	24ddd]	24gg	24dd]	8B	8B	24g]	24g]	.
24ddd	.	.	.	.	24b	24b	.	.	.	24ddd	24bb	24dd	.	.	24g	24g	.
24ddd	.	.	.	.	24g	24g	.	.	.	24ddd	24gg	24dd	.	.	24g	24g	.
24ddd	.	8D	.	.	24f#	24f#	8a	8A	8A	24ddd	24ff#	24dd	8A	8A	24g	24g	.
24ddd	.	.	.	.	24a	24a	.	.	.	24ddd	24aa	24dd	.	.	24g	24g	.
24ddd	.	.	.	.	24f#	24f#	.	.	.	24ddd	24ff#	24dd	.	.	24g	24g	.
24ddd	.	8D	.	.	24e	24e	8g	8G	8G	24ddd	24ee	24dd	8G	8G	24g	24g	.
24ddd	.	.	.	.	24g	24g	.	.	.	24ddd	24gg	24dd	.	.	24g	24g	.
24ddd	.	.	.	.	24e	24e	.	.	.	24ddd	24ee	24dd	.	.	24g	24g	.
=13	=13	=13	=13	=13	=13	=13	=13	=13	=13	=13	=13	=13	=13	=13	=13	=13	=13
4.ddd	4dd]	4D	24ddd	24ddd	24d	24d	24f#	4F#	4F#	4.ddd	4dd	4dd	24F#	24F#	4g	4g	4dd]
.	.	.	24ddd	24ddd	24cc#	24cc#	24e	.	.	.	.	.	24E	24E	.	.	.
.	.	.	24ddd	24ddd	24dd	24dd	24f#	.	.	.	.	.	24F#	24F#	.	.	.
.	.	.	24ddd	24ddd	24ee	24ee	24g	.	.	.	.	.	24G	24G	.	.	.
.	.	.	24ddd	24ddd	24dd	24dd	24f#	.	.	.	.	.	24F#	24F#	.	.	.
.	.	.	24ddd	24ddd	24ee	24ee	24g	.	.	.	.	.	24G	24G	.	.	.
.	2r	2r	24ddd	24ddd	24ff#	24ff#	24a	2r	2r	.	2r	8r	24A	24A	2r	2r	2r
.	.	.	24ddd	24ddd	24ee	24ee	24g	.	.	.	.	.	24G	24G	.	.	.
.	.	.	24ddd	24ddd	24ff#	24ff#	24a	.	.	.	.	.	24A	24A	.	.	.
24gg	.	.	4.ddd	4.ddd	24gg	24gg	8b	.	.	4.r	.	4.r	8B	8B	.	.	.
24bb	.	.	.	.	24bb	24bb	.	.	.	.	.	.	.	.	.	.	.
24gg	.	.	.	.	24gg	24gg	.	.	.	.	.	.	.	.	.	.	.
24ff#	.	.	.	.	24ff#	24ff#	8a	.	.	.	.	.	8A	8A	.	.	.
24aa	.	.	.	.	24aa	24aa	.	.	.	.	.	.	.	.	.	.	.
24ff#	.	.	.	.	24ff#	24ff#	.	.	.	.	.	.	.	.	.	.	.
24ff	.	.	.	.	24ff	24ff	8g#	.	.	.	.	.	8G#	8G#	.	.	.
24ee	.	.	.	.	24ee	24ee	.	.	.	.	.	.	.	.	.	.	.
24ff	.	.	.	.	24ff	24ff	.	.	.	.	.	.	.	.	.	.	.
=14	=14	=14	=14	=14	=14	=14	=14	=14	=14	=14	=14	=14	=14	=14	=14	=14	=14
8ee	2.r	2.r	24ccc#	24ccc#	24ee	24ee	4a	4r	4r	2.r	4.r	4.r	4A	4A	2.r	2.r	2.r
.	.	.	24aa	24aa	24a	24a	.	.	.	.	.	.	.	.	.	.	.
.	.	.	24aa	24aa	24a	24a	.	.	.	.	.	.	.	.	.	.	.
3..r	.	.	24aa	24aa	24a	24a	.	.	.	.	.	.	.	.	.	.	.
.	.	.	24aa	24aa	24a	24a	.	.	.	.	.	.	.	.	.	.	.
.	.	.	24aa	24aa	24a	24a	.	.	.	.	.	.	.	.	.	.	.
.	.	.	24aa	24aa	24a	24a	2r	24AA	24AA	.	.	.	2r	2r	.	.	.
.	.	.	24aa	24aa	24a	24a	.	24C#	24C#	.	.	.	.	.	.	.	.
.	.	.	24aa	24aa	24a	24a	.	24E	24E	.	.	.	.	.	.	.	.
.	.	.	24aa	24aa	24a	24a	.	8G	8G	.	4ee	4cc#	.	.	.	.	.
.	.	.	24gg#	24gg#	24g#	24g#	.	.	.	.	.	.	.	.	.	.	.
.	.	.	24aa	24aa	24a	24a	.	.	.	.	.	.	.	.	.	.	.
.	.	.	24aa	24aa	24a	24a	.	8r	8r	.	.	.	.	.	.	.	.
.	.	.	24aa	24aa	24a	24a	.	.	.	.	.	.	.	.	.	.	.
.	.	.	24aa	24aa	24a	24a	.	.	.	.	.	.	.	.	.	.	.
.	.	.	24aa	24aa	24a	24a	.	32G	32G	.	8ff#	8dd	.	.	.	.	.
.	.	.	.	.	.	.	.	32F#	32F#	.	.	.	.	.	.	.	.
.	.	.	24aa	24aa	24a	24a	.	.	.	.	.	.	.	.	.	.	.
.	.	.	.	.	.	.	.	32E	32E	.	.	.	.	.	.	.	.
24r	.	.	24aa	24aa	24a	24a	.	.	.	.	.	.	.	.	.	.	.
.	.	.	.	.	.	.	.	32D	32D	.	.	.	.	.	.	.	.
=15	=15	=15	=15	=15	=15	=15	=15	=15	=15	=15	=15	=15	=15	=15	=15	=15	=15
2.r	2.r	2.r	24aa	24aa	24a	24a	4r	8C#	8C#	2.r	8gg	8ee	4.r	4.r	2.r	2.r	2.r
.	.	.	24eee	24eee	24ee	24ee	.	.	.	.	.	.	.	.	.	.	.
.	.	.	24ccc#	24ccc#	24cc#	24cc#	.	.	.	.	.	.	.	.	.	.	.
.	.	.	24aa	24aa	24a	24a	.	8r	3..r	.	3..r	4r	.	.	.	.	.
.	.	.	24aa	24aa	24a	24a	.	.	.	.	.	.	.	.	.	.	.
.	.	.	24aa	24aa	24a	24a	.	.	.	.	.	.	.	.	.	.	.
.	.	.	24aa	24aa	24a	24a	24A	24A	.	.	.	.	.	.	.	.	.
.	.	.	24aa	24aa	24a	24a	24c#	24c#	.	.	.	.	.	.	.	.	.
.	.	.	24aa	24aa	24a	24a	24e	24e	.	.	.	.	.	.	.	.	.
.	.	.	24aa	24aa	24a	24a	8g	8g	.	.	.	4.r	4e	4c#	.	.	.
.	.	.	24gg#	24gg#	24g#	24g#	.	.	.	.	.	.	.	.	.	.	.
.	.	.	24aa	24aa	24a	24a	.	.	.	.	.	.	.	.	.	.	.
.	.	.	24aa	24aa	24a	24a	8r	8r	.	.	.	.	.	.	.	.	.
.	.	.	24aa	24aa	24a	24a	.	.	.	.	.	.	.	.	.	.	.
.	.	.	24aa	24aa	24a	24a	.	.	.	.	.	.	.	.	.	.	.
.	.	.	24aa	24aa	24a	24a	32g	32g	.	.	.	.	8f#	8d	.	.	.
.	.	.	.	.	.	.	32f#	32f#	.	.	.	.	.	.	.	.	.
.	.	.	24aa	24aa	24a	24a	.	.	.	.	.	.	.	.	.	.	.
.	.	.	.	.	.	.	32e	32e	.	.	.	.	.	.	.	.	.
.	.	.	24aa	24aa	24a	24a	.	.	24r	.	24r	.	.	.	.	.	.
.	.	.	.	.	.	.	32d	32d	.	.	.	.	.	.	.	.	.
=16	=16	=16	=16	=16	=16	=16	=16	=16	=16	=16	=16	=16	=16	=16	=16	=16	=16
4.r	2.r	2.r	24aa	24aa	24a	24a	8c#	8c#	4.r	2.r	4.r	4.r	8g	8e	2.r	2.r	2.r
.	.	.	24eee	24eee	24ee	24ee	.	.	.	.	.	.	.	.	.	.	.
.	.	.	24ccc#	24ccc#	24cc#	24cc#	.	.	.	.	.	.	.	.	.	.	.
.	.	.	24aa	24aa	24a	24a	8r	8r	.	.	.	.	3..r	3..r	.	.	.
.	.	.	24aa	24aa	24a	24a	.	.	.	.	.	.	.	.	.	.	.
.	.	.	24aa	24aa	24a	24a	.	.	.	.	.	.	.	.	.	.	.
.	.	.	24aa	24aa	24a	24a	24A	24A	.	.	.	.	.	.	.	.	.
.	.	.	24aa	24aa	24a	24a	24c#	24c#	.	.	.	.	.	.	.	.	.
.	.	.	24aa	24aa	24a	24a	24e	24e	.	.	.	.	.	.	.	.	.
8aa	.	.	8aa	8aa	8cc#	8cc#	24g	24g	8AA	.	8cc#	4.r	.	.	.	.	.
.	.	.	.	.	.	.	24f#	24f#	.	.	.	.	.	.	.	.	.
.	.	.	.	.	.	.	24e	24e	.	.	.	.	.	.	.	.	.
8ccc#	.	.	8ccc#	8ccc#	8ee	8ee	24d	24d	8.r	.	8ee	.	.	.	.	.	.
.	.	.	.	.	.	.	24c#	24c#	.	.	.	.	.	.	.	.	.
.	.	.	.	.	.	.	24B	24B	.	.	.	.	.	.	.	.	.
8ddd	.	.	8ddd	8ddd	8ff#	8ff#	24A	24A	.	.	8ff#	.	.	.	.	.	.
.	.	.	.	.	.	.	24G	24G	.	.	.	.	.	.	.	.	.
.	.	.	.	.	.	.	.	.	48r	.	.	.	.	.	.	.	.
.	.	.	.	.	.	.	24F#	24F#	24F#	.	.	.	24r	24r	.	.	.
=17	=17	=17	=17	=17	=17	=17	=17	=17	=17	=17	=17	=17	=17	=17	=17	=17	=17
8eee	2.r	2.r	8eee	8eee	8gg	8gg	24E	24E	24E	2.r	8gg	4.r	2.r	2.r	2.r	2.r	2.r
.	.	.	.	.	.	.	24d	24D	24D	.	.	.	.	.	.	.	.
.	.	.	.	.	.	.	24c#	24C#	24C#	.	.	.	.	.	.	.	.
8ccc#	.	.	8ccc#	8ccc#	8ee	8ee	24B	24BB	24BB	.	8ee	.	.	.	.	.	.
.	.	.	.	.	.	.	24A	24AA	24AA	.	.	.	.	.	.	.	.
.	.	.	.	.	.	.	24G	24GG	24GG	.	.	.	.	.	.	.	.
8ddd	.	.	8ddd	8ddd	8dd	8dd	8F#	8FF#	8FF#	.	8dd	.	.	.	.	.	.
8bb	.	.	24bb	24bb	24b	24b	8G	8GG	8GG	.	8bb	4.r	.	.	.	.	.
.	.	.	24aa	24aa	24a	24a	.	.	.	.	.	.	.	.	.	.	.
.	.	.	24gg	24gg	24g	24g	.	.	.	.	.	.	.	.	.	.	.
8r	.	.	24ff#	24ff#	24f#	24f#	8r	8r	8r	.	8r	.	.	.	.	.	.
.	.	.	24ee	24ee	24e	24e	.	.	.	.	.	.	.	.	.	.	.
.	.	.	24dd	24dd	24d	24d	.	.	.	.	.	.	.	.	.	.	.
8ccc#	.	.	24cc#	24cc#	24c#	24c#	16.g	8AA	8AA	.	8gg	.	.	.	.	.	.
.	.	.	24aa	24aa	24a	24a	.	.	.	.	.	.	.	.	.	.	.
.	.	.	24cc#	24cc#	24c#	24c#	.	.	.	.	.	.	.	.	.	.	.
.	.	.	.	.	.	.	32e	.	.	.	.	.	.	.	.	.	.
=18	=18	=18	=18	=18	=18	=18	=18	=18	=18	=18	=18	=18	=18	=18	=18	=18	=18
8ddd	2.r	2.r	8dd	8dd	8d	8d	8d	8D	8D	4r	8ff#	4r	4r	4r	2.r	2.r	2.r
8r	.	.	8r	8r	8r	8r	8r	8r	8r	.	8r	.	.	.	.	.	.
8ddd	.	.	24d	24d	24d	24d	24d	24D	8D	8ddd	8dd	8dd	24D	24D	.	.	.
.	.	.	24dd	24dd	24dd	24dd	24dd	24d	.	.	.	.	24d	24d	.	.	.
.	.	.	24d	24d	24d	24d	24d	24D	.	.	.	.	24D	24D	.	.	.
8eee-	.	.	8ee-	8ee-	8ee-	8ee-	8ee-	8E-	8E-	8eee-	8ee-	8ee-	8e-	8e-	.	.	.
8r	.	.	8r	8r	8r	8r	8r	8r	8r	8r	8r	8r	8r	8r	.	.	.
8ccc	.	.	24c	24c	24c	24c	24c	24C	8C	8ccc	8cc	8cc	24C	24C	.	.	.
.	.	.	24cc	24cc	24cc	24cc	24cc	24c	.	.	.	.	24c	24c	.	.	.
.	.	.	24c	24c	24c	24c	24c	24C	.	.	.	.	24C	24C	.	.	.
=19	=19	=19	=19	=19	=19	=19	=19	=19	=19	=19	=19	=19	=19	=19	=19	=19	=19
8aa	2.r	2.r	8A	8A	8A	8A	8A	8AA	8AA	8aa	8a	8a	8AA	8AA	2.r	2.r	2.r
8r	.	.	8r	8r	8r	8r	8r	8r	8r	8r	8r	8r	8r	8r	.	.	.
8ddd	.	.	24d	24d	24d	24d	24d	24D	8D	8ddd	8dd	8dd	24D	24D	.	.	.
.	.	.	24dd	24dd	24dd	24dd	24dd	24d	.	.	.	.	24d	24d	.	.	.
.	.	.	24d	24d	24d	24d	24d	24D	.	.	.	.	24D	24D	.	.	.
8eee-	.	.	24e-	24e-	24e-	24e-	24e-	24E-	8E-	8eee-	8ee-	8ee-	24E-	24E-	.	.	.
.	.	.	24ee-	24ee-	24ee-	24ee-	24ee-	24e-	.	.	.	.	24e-	24e-	.	.	.
.	.	.	24e-	24e-	24e-	24e-	24e-	24E-	.	.	.	.	24E-	24E-	.	.	.
8ccc	.	.	24c	24c	24c	24c	24c	24C	8C	8ccc	8cc	8cc	24C	24C	.	.	.
.	.	.	24cc	24cc	24cc	24cc	24cc	24c	.	.	.	.	24c	24c	.	.	.
.	.	.	24c	24c	24c	24c	24c	24C	.	.	.	.	24C	24C	.	.	.
8aa	.	.	24A	24A	24A	24A	24A	24AA	8AA	8aa	8a	8a	24AA	24AA	.	.	.
.	.	.	24cc	24cc	24cc	24cc	24cc	24c	.	.	.	.	24A	24A	.	.	.
.	.	.	24a	24a	24a	24a	24a	24A	.	.	.	.	24AA	24AA	.	.	.
=20	=20	=20	=20	=20	=20	=20	=20	=20	=20	=20	=20	=20	=20	=20	=20	=20	=20
8ff#	2.r	2.r	8f#	8f#	8f#	8f#	8f#	8F#	8FF#	8ff#	8f#	8f#	8FF#	8FF#	2.r	2.r	2.r
2r	.	.	8r	8r	4r	4r	4r	4r	4r	3..r	3..r	4r	3..r	3..r	.	.	.
.	.	.	24d	24d	.	.	.	.	.	.	.	.	.	.	.	.	.
.	.	.	24f#	24f#	.	.	.	.	.	.	.	.	.	.	.	.	.
.	.	.	24a	24a	.	.	.	.	.	.	.	.	.	.	.	.	.
.	.	.	8cc	8cc	8f#	8f#	8A	8D	8D	.	.	4.r	.	.	.	.	.
.	.	.	8r	8r	4r	4r	4r	4r	4r	.	.	.	.	.	.	.	.
24dd	.	.	24d	24d	.	.	.	.	.	.	.	.	.	.	.	.	.
24ff#	.	.	24f#	24f#	.	.	.	.	.	.	.	.	.	.	.	.	.
24aa	.	.	24a	24a	.	.	.	.	.	24r	24r	.	24r	24r	.	.	.
=21	=21	=21	=21	=21	=21	=21	=21	=21	=21	=21	=21	=21	=21	=21	=21	=21	=21
8ccc	2.r	2.r	8cc	8cc	8f#	8f#	8A	8d	8d	2.r	2.r	4.r	2.r	2.r	2.r	2.r	2.r
24r	.	.	24r	24r	4r	4r	4r	4r	4r	.	.	.	.	.	.	.	.
24gg#	.	.	24g#	24g#	.	.	.	.	.	.	.	.	.	.	.	.	.
24aa	.	.	24a	24a	.	.	.	.	.	.	.	.	.	.	.	.	.
24ccc	.	.	24cc	24cc	.	.	.	.	.	.	.	.	.	.	.	.	.
24gg#	.	.	24g#	24g#	.	.	.	.	.	.	.	.	.	.	.	.	.
24aa	.	.	24a	24a	.	.	.	.	.	.	.	.	.	.	.	.	.
8ccc	.	.	8cc	8cc	8a 8f#	8a 8f#	8A 8D	8D	8D	.	.	4.r	.	.	.	.	.
4r	.	.	8r	8r	4r	4r	4r	4r	4r	.	.	.	.	.	.	.	.
.	.	.	24d	24d	.	.	.	.	.	.	.	.	.	.	.	.	.
.	.	.	24g	24g	.	.	.	.	.	.	.	.	.	.	.	.	.
.	.	.	24b	24b	.	.	.	.	.	.	.	.	.	.	.	.	.
=22	=22	=22	=22	=22	=22	=22	=22	=22	=22	=22	=22	=22	=22	=22	=22	=22	=22
2.r	2.r	2.r	8dd	8dd	8b	8b	8G	8G	8G	2.r	2.r	4.r	3..r	3..r	24cc	24e	2.r
.	.	.	.	.	.	.	.	.	.	.	.	.	.	.	24cc	24e	.
.	.	.	.	.	.	.	.	.	.	.	.	.	.	.	24cc	24e	.
.	.	.	8r	8r	8r	8r	8r	8r	8r	.	.	.	.	.	8cc	8e	.
.	.	.	32dd	32dd	8f# 8c	8f# 8c	8c	8D	8D	.	.	.	.	.	8dd	8g	.
.	.	.	32cc	32cc	.	.	.	.	.	.	.	.	.	.	.	.	.
.	.	.	32b	32b	.	.	.	.	.	.	.	.	.	.	.	.	.
.	.	.	32a	32a	.	.	.	.	.	.	.	.	.	.	.	.	.
.	.	.	8g	8g	8g 8B	8g 8B	8B	8GG	8GG	.	.	4.r	.	.	24ee	24cc	.
.	.	.	.	.	.	.	.	.	.	.	.	.	.	.	24ee	24cc	.
.	.	.	.	.	.	.	.	.	.	.	.	.	.	.	24ee	24cc	.
.	.	.	8r	8r	8r	8r	8r	8r	8r	.	.	.	.	.	8ee	8cc	.
.	.	.	.	.	.	.	.	.	.	.	.	.	24r	24r	.	.	.
.	.	.	32aa	32aa	8d	8d	8G	8BB	8BB	.	.	.	8D	8BB	8r	8r	.
.	.	.	32gg	32gg	.	.	.	.	.	.	.	.	.	.	.	.	.
.	.	.	32ff#	32ff#	.	.	.	.	.	.	.	.	.	.	.	.	.
.	.	.	32gg	32gg	.	.	.	.	.	.	.	.	.	.	.	.	.
=23	=23	=23	=23	=23	=23	=23	=23	=23	=23	=23	=23	=23	=23	=23	=23	=23	=23
2.r	2.r	2.r	8ee	8ee	8e	8e	8G	8C	8C	2.r	2.r	4.r	24E	24C	2.r	2.r	2.r
.	.	.	.	.	.	.	.	.	.	.	.	.	24E	24C	.	.	.
.	.	.	.	.	.	.	.	.	.	.	.	.	24E	24C	.	.	.
.	.	.	8cc	8cc	8r	8r	8r	8r	8r	.	.	.	24e	24c	.	.	.
.	.	.	.	.	.	.	.	.	.	.	.	.	24e	24c	.	.	.
.	.	.	.	.	.	.	.	.	.	.	.	.	24e	24c	.	.	.
.	.	.	8a	8a	8c	8c	8e	8C	8C	.	.	.	24c	24A	.	.	.
.	.	.	.	.	.	.	.	.	.	.	.	.	24c	24A	.	.	.
.	.	.	.	.	.	.	.	.	.	.	.	.	24c	24A	.	.	.
.	.	.	8g	8g	8B	8B	8d	8D	8D	.	.	4.r	8B	8G	.	.	.
.	.	.	8f#	8f#	8A	8A	4r	4r	4r	.	.	.	8A	8F#	.	.	.
.	.	.	24d	24d	8r	8r	.	.	.	.	.	.	8r	8r	.	.	.
.	.	.	24f#	24f#	.	.	.	.	.	.	.	.	.	.	.	.	.
.	.	.	24a	24a	.	.	.	.	.	.	.	.	.	.	.	.	.
=24	=24	=24	=24	=24	=24	=24	=24	=24	=24	=24	=24	=24	=24	=24	=24	=24	=24
2.r	2.r	2.r	8cc	8cc	8f#	8f#	8A	8D	8D	2.r	2.r	4.r	2.r	2.r	24dd	24g	2.r
.	.	.	.	.	.	.	.	.	.	.	.	.	.	.	24dd	24g	.
.	.	.	.	.	.	.	.	.	.	.	.	.	.	.	24dd	24g	.
.	.	.	8r	8r	8r	8r	8r	8r	8r	.	.	.	.	.	8dd	8g	.
.	.	.	32b	32b	8d	8d	8F#	8F#	8F#	.	.	.	.	.	8r	8r	.
.	.	.	32a	32a	.	.	.	.	.	.	.	.	.	.	.	.	.
.	.	.	32g	32g	.	.	.	.	.	.	.	.	.	.	.	.	.
.	.	.	32a	32a	.	.	.	.	.	.	.	.	.	.	.	.	.
.	.	.	8b	8b	8d	8d	8G	8G	8G	.	.	4.r	.	.	24ee	24cc	.
.	.	.	.	.	.	.	.	.	.	.	.	.	.	.	24ee	24cc	.
.	.	.	.	.	.	.	.	.	.	.	.	.	.	.	24ee	24cc	.
.	.	.	16.r	16.r	8r	8r	8r	8r	8r	.	.	.	.	.	8ee	8cc	.
.	.	.	32a	32a	.	.	.	.	.	.	.	.	.	.	.	.	.
.	.	.	16.g	16.g	8d	8d	8G	8BB	8BB	.	.	.	.	.	8r	8r	.
.	.	.	32f#	32f#	.	.	.	.	.	.	.	.	.	.	.	.	.
=25	=25	=25	=25	=25	=25	=25	=25	=25	=25	=25	=25	=25	=25	=25	=25	=25	=25
2.r	2.r	2.r	16.e	16.e	8e	8e	8G	8C	8C	2.r	4.r	4.r	4.r	4.r	4.r	4.r	2.r
.	.	.	32d	32d	.	.	.	.	.	.	.	.	.	.	.	.	.
.	.	.	16.c	16.c	8r	8r	8r	8r	8r	.	.	.	.	.	.	.	.
.	.	.	32B	32B	.	.	.	.	.	.	.	.	.	.	.	.	.
.	.	.	16.A	16.A	8c	8c	8F#	8D	8D	.	.	.	.	.	.	.	.
.	.	.	32d	32d	.	.	.	.	.	.	.	.	.	.	.	.	.
.	.	.	24G	24G	8B-	8B-	4G	4GG	4GG	.	4.gg	4b-	4G	4G	4cc	4c	.
.	.	.	24B-	24B-	.	.	.	.	.	.	.	.	.	.	.	.	.
.	.	.	24d	24d	.	.	.	.	.	.	.	.	.	.	.	.	.
.	.	.	24g	24g	8r	8r	.	.	.	.	.	.	.	.	.	.	.
.	.	.	24b-	24b-	.	.	.	.	.	.	.	.	.	.	.	.	.
.	.	.	24a	24a	.	.	.	.	.	.	.	.	.	.	.	.	.
.	.	.	24g	24g	[8g	[8g	8r	8r	8r	.	.	8dd	8B-	8B-	8r	8r	.
.	.	.	24f#	24f#	.	.	.	.	.	.	.	.	.	.	.	.	.
.	.	.	24g	24g	.	.	.	.	.	.	.	.	.	.	.	.	.
=26	=26	=26	=26	=26	=26	=26	=26	=26	=26	=26	=26	=26	=26	=26	=26	=26	=26
2.r	2.r	2.r	24a	24a	8g]	8g]	2.r	2.r	2.r	2.r	4ee-	8ee-	8c	8c	2.r	2.r	2.r
.	.	.	24cc	24cc	.	.	.	.	.	.	.	.	.	.	.	.	.
.	.	.	24b-	24b-	.	.	.	.	.	.	.	.	.	.	.	.	.
.	.	.	24a	24a	8f#	8f#	.	.	.	.	.	8r	8d	8d	.	.	.
.	.	.	24ee-	24ee-	.	.	.	.	.	.	.	.	.	.	.	.	.
.	.	.	24dd	24dd	.	.	.	.	.	.	.	.	.	.	.	.	.
.	.	.	24cc	24cc	8a	8a	.	.	.	.	8cc	16f#	8D	8D	.	.	.
.	.	.	24b-	24b-	.	.	.	.	.	.	.	.	.	.	.	.	.
.	.	.	.	.	.	.	.	.	.	.	.	16a	.	.	.	.	.
.	.	.	24a	24a	.	.	.	.	.	.	.	.	.	.	.	.	.
.	.	.	8b-	8b-	24G	24G	.	.	.	.	8.b-	8a	4G	4G	.	.	.
.	.	.	.	.	24B-	24B-	.	.	.	.	.	.	.	.	.	.	.
.	.	.	.	.	24d	24d	.	.	.	.	.	.	.	.	.	.	.
.	.	.	8dd	8dd	24g	24g	.	.	.	.	.	8g	.	.	.	.	.
.	.	.	.	.	24b-	24b-	.	.	.	.	.	.	.	.	.	.	.
.	.	.	.	.	.	.	.	.	.	.	16b-	.	.	.	.	.	.
.	.	.	.	.	24a	24a	.	.	.	.	.	.	.	.	.	.	.
.	.	.	[8gg	[8gg	24g	24g	.	.	.	.	32cc	8dd	8r	8r	.	.	.
.	.	.	.	.	.	.	.	.	.	.	32b-	.	.	.	.	.	.
.	.	.	.	.	24f#	24f#	.	.	.	.	.	.	.	.	.	.	.
.	.	.	.	.	.	.	.	.	.	.	32a	.	.	.	.	.	.
.	.	.	.	.	24g	24g	.	.	.	.	.	.	.	.	.	.	.
.	.	.	.	.	.	.	.	.	.	.	32b-	.	.	.	.	.	.
=27	=27	=27	=27	=27	=27	=27	=27	=27	=27	=27	=27	=27	=27	=27	=27	=27	=27
2.r	2.r	2.r	8gg]	8gg]	24a	24a	2.r	2.r	2.r	2.r	4cc	4cc	4.D	4.D	2.r	2.r	2.r
.	.	.	.	.	24cc	24cc	.	.	.	.	.	.	.	.	.	.	.
.	.	.	.	.	24b-	24b-	.	.	.	.	.	.	.	.	.	.	.
.	.	.	8ff#	8ff#	24a	24a	.	.	.	.	.	.	.	.	.	.	.
.	.	.	.	.	24ee-	24ee-	.	.	.	.	.	.	.	.	.	.	.
.	.	.	.	.	24dd	24dd	.	.	.	.	.	.	.	.	.	.	.
.	.	.	4aa	4aa	24cc	24cc	.	.	.	.	24dd	24f#	.	.	.	.	.
.	.	.	.	.	24b-	24b-	.	.	.	.	24ee-	24g	.	.	.	.	.
.	.	.	.	.	24a	24a	.	.	.	.	24cc	24a	.	.	.	.	.
.	.	.	.	.	24b-	24b-	.	.	.	.	4dd	8g	8GG	8GG	.	.	.
.	.	.	.	.	24dd	24dd	.	.	.	.	.	.	.	.	.	.	.
.	.	.	.	.	24cc	24cc	.	.	.	.	.	.	.	.	.	.	.
.	.	.	8gg	8gg	24b-	24b-	.	.	.	.	.	4r	8r	8r	.	.	.
.	.	.	.	.	24a	24a	.	.	.	.	.	.	.	.	.	.	.
.	.	.	.	.	24g	24g	.	.	.	.	.	.	.	.	.	.	.
.	.	.	[8bb-	[8bb-	24f	24f	.	.	.	.	[8gg	.	8G	8G	.	.	.
.	.	.	.	.	24e	24e	.	.	.	.	.	.	.	.	.	.	.
.	.	.	.	.	24d	24d	.	.	.	.	.	.	.	.	.	.	.
=28	=28	=28	=28	=28	=28	=28	=28	=28	=28	=28	=28	=28	=28	=28	=28	=28	=28
2.r	2.r	2.r	8bb-]	8bb-]	24c#	24c#	4.r	2.r	2.r	2.r	8gg]	8r	8A	8A	2.r	2.r	2.r
.	.	.	.	.	24e	24e	.	.	.	.	.	.	.	.	.	.	.
.	.	.	.	.	24f	24f	.	.	.	.	.	.	.	.	.	.	.
.	.	.	8aa	8aa	24g	24g	.	.	.	.	8ff	8cc#	8r	8r	.	.	.
.	.	.	.	.	24a	24a	.	.	.	.	.	.	.	.	.	.	.
.	.	.	.	.	24b	24b	.	.	.	.	.	.	.	.	.	.	.
.	.	.	8gg	8gg	24cc#	24cc#	.	.	.	.	4ee	8cc#	8AA	8AA	.	.	.
.	.	.	.	.	24dd	24dd	.	.	.	.	.	.	.	.	.	.	.
.	.	.	.	.	24ee	24ee	.	.	.	.	.	.	.	.	.	.	.
.	.	.	8.ff	8.ff	8ee	8ee	24D	.	.	.	.	8.dd	24D	24D	.	.	.
.	.	.	.	.	.	.	24F	.	.	.	.	.	24F	24F	.	.	.
.	.	.	.	.	.	.	24A	.	.	.	.	.	24A	24A	.	.	.
.	.	.	.	.	8dd	8dd	24d	.	.	.	8dd	.	24d	24d	.	.	.
.	.	.	.	.	.	.	24f	.	.	.	.	.	24f	24f	.	.	.
.	.	.	16ff	16ff	.	.	.	.	.	.	.	16ff	.	.	.	.	.
.	.	.	.	.	.	.	24e	.	.	.	.	.	24e	24e	.	.	.
.	.	.	16.ff	16.ff	[8dd	[8dd	24d	.	.	.	[8dd	16.ff	24d	24d	.	.	.
.	.	.	.	.	.	.	24c#	.	.	.	.	.	24c#	24c#	.	.	.
.	.	.	.	.	.	.	24d	.	.	.	.	.	24d	24d	.	.	.
.	.	.	64ee	64ee	.	.	.	.	.	.	.	64ee	.	.	.	.	.
.	.	.	64ff	64ff	.	.	.	.	.	.	.	64ff	.	.	.	.	.
=29	=29	=29	=29	=29	=29	=29	=29	=29	=29	=29	=29	=29	=29	=29	=29	=29	=29
2.r	2.r	2.r	8.gg	8.gg	8dd]	8dd]	24e	2.r	2.r	2.r	8dd]	8.gg	24e	24e	2.r	2.r	2.r
.	.	.	.	.	.	.	24g	.	.	.	.	.	24g	24g	.	.	.
.	.	.	.	.	.	.	24f	.	.	.	.	.	24f	24f	.	.	.
.	.	.	.	.	8cc#	8cc#	24e	.	.	.	8cc#	.	24e	24e	.	.	.
.	.	.	.	.	.	.	24b-	.	.	.	.	.	24g	24g	.	.	.
.	.	.	16gg	16gg	.	.	.	.	.	.	.	16gg	.	.	.	.	.
.	.	.	.	.	.	.	24a	.	.	.	.	.	24f	24f	.	.	.
.	.	.	16.gg	16.gg	4ee	4ee	24g	.	.	.	4ee	16.gg	24e	24e	.	.	.
.	.	.	.	.	.	.	24f	.	.	.	.	.	24d	24d	.	.	.
.	.	.	.	.	.	.	24e	.	.	.	.	.	24c#	24c#	.	.	.
.	.	.	64ff#	64ff#	.	.	.	.	.	.	.	64ff	.	.	.	.	.
.	.	.	64gg	64gg	.	.	.	.	.	.	.	64gg	.	.	.	.	.
.	.	.	4aa	4aa	.	.	24f	.	.	.	.	4aa	24d	24d	.	.	.
.	.	.	.	.	.	.	24a	.	.	.	.	.	24A	24A	.	.	.
.	.	.	.	.	.	.	24g	.	.	.	.	.	24G	24G	.	.	.
.	.	.	.	.	8dd	8dd	24f	.	.	.	8dd	.	24F	24F	.	.	.
.	.	.	.	.	.	.	24e	.	.	.	.	.	24E	24E	.	.	.
.	.	.	.	.	.	.	24d	.	.	.	.	.	24D	24D	.	.	.
.	.	.	16.ddd	16.ddd	24ff#	24ff#	24c	.	.	.	24ff#	24a	24C	24C	.	.	.
.	.	.	.	.	24aa	24aa	24B-	.	.	.	24aa	24b-	24BB-	24BB-	.	.	.
.	.	.	.	.	24cc	24cc	24A	.	.	.	24cc	24cc	24AA	24AA	.	.	.
.	.	.	32ff#	32ff#	.	.	.	.	.	.	.	.	.	.	.	.	.
=30	=30	=30	=30	=30	=30	=30	=30	=30	=30	=30	=30	=30	=30	=30	=30	=30	=30
4.bb-	4g	4GG	8aa	8aa	8b-	8b-	4.G	24GG	24GG	8b-	8b-	4dd	4.GG	4.GG	4cc	4cc	4g
.	.	.	.	.	.	.	.	24BB-	24BB-	.	.	.	.	.	.	.	.
.	.	.	.	.	.	.	.	24D	24D	.	.	.	.	.	.	.	.
.	.	.	16gg	16gg	8dd	8dd	.	24G	24G	8dd	8r	.	.	.	.	.	.
.	.	.	.	.	.	.	.	24B-	24B-	.	.	.	.	.	.	.	.
.	.	.	8b-	8b-	.	.	.	.	.	.	.	.	.	.	.	.	.
.	.	.	.	.	.	.	.	24A	24A	.	.	.	.	.	.	.	.
.	2r	8GG	.	.	4gg	4gg	.	24G	24G	4gg	8dd	4gg	.	.	8cc	8cc	2r
.	.	.	.	.	.	.	.	24F#	24F#	.	.	.	.	.	.	.	.
.	.	.	32a	32a	.	.	.	.	.	.	.	.	.	.	.	.	.
.	.	.	.	.	.	.	.	24G	24G	.	.	.	.	.	.	.	.
.	.	.	32b-	32b-	.	.	.	.	.	.	.	.	.	.	.	.	.
4.ccc	.	4D	8cc	8cc	.	.	4.D	24A	24A	.	8cc	.	4.DD	4.DD	4g	4g	.
.	.	.	.	.	.	.	.	24c	24c	.	.	.	.	.	.	.	.
.	.	.	.	.	.	.	.	24B-	24B-	.	.	.	.	.	.	.	.
.	.	.	24r	24r	8ff#	8ff#	.	24A	24A	8ff#	8r	8ff#	.	.	.	.	.
.	.	.	24a	24a	.	.	.	24e-	24e-	.	.	.	.	.	.	.	.
.	.	.	24b-	24b-	.	.	.	24d	24d	.	.	.	.	.	.	.	.
.	.	8D	24cc	24cc	[8aa	[8aa	.	24c	24c	[8aa	8ee-	[8aa	.	.	8g	8g	.
.	.	.	24dd	24dd	.	.	.	24B-	24B-	.	.	.	.	.	.	.	.
.	.	.	24ee-	24ee-	.	.	.	24A	24A	.	.	.	.	.	.	.	.
=31	=31	=31	=31	=31	=31	=31	=31	=31	=31	=31	=31	=31	=31	=31	=31	=31	=31
4.ddd	4g	4GG	8dd	8dd	8aa]	8aa]	4G	24B-	24B-	8aa]	8dd	8aa]	24GG	24GG	4cc	4c	4g
.	.	.	.	.	.	.	.	24d	24d	.	.	.	24d	24d	.	.	.
.	.	.	.	.	.	.	.	24c	24c	.	.	.	24c	24c	.	.	.
.	.	.	24r	24r	8gg	8gg	.	24B-	24B-	8gg	8r	8gg	24B-	24B-	.	.	.
.	.	.	24g	24g	.	.	.	24A	24A	.	.	.	24A	24A	.	.	.
.	.	.	24a	24a	.	.	.	24G	24G	.	.	.	24G	24G	.	.	.
.	2r	2r	24b-	24b-	4bb-	4bb-	4r	24F	24F	4bb-	8dd	4bb-	24F	24F	2r	2r	2r
.	.	.	24cc	24cc	.	.	.	24E-	24E-	.	.	.	24E-	24E-	.	.	.
.	.	.	24dd	24dd	.	.	.	24D	24D	.	.	.	24D	24D	.	.	.
4.eee-	.	.	[3ee-	[3ee-	.	.	.	24C	24C	.	8gg	.	24C	24C	.	.	.
.	.	.	.	.	.	.	.	24D	24D	.	.	.	24D	24D	.	.	.
.	.	.	.	.	.	.	.	24E-	24E-	.	.	.	24E-	24E-	.	.	.
.	.	.	.	.	8aa	8aa	8F	24F	24F	8aa	8r	8aa	24F	24F	.	.	.
.	.	.	.	.	.	.	.	24c	24c	.	.	.	24c	24c	.	.	.
.	.	.	.	.	.	.	.	24B-	24B-	.	.	.	24B-	24B-	.	.	.
.	.	.	.	.	[8ccc	[8ccc	8F	24A	24A	[8ccc	8a	[8ccc	24A	24A	.	.	.
.	.	.	.	.	.	.	.	24G	24G	.	.	.	24G	24G	.	.	.
.	.	.	96ee-]	96ee-]	.	.	.	24F	24F	.	.	.	24F	24F	.	.	.
.	.	.	32a	32a	.	.	.	.	.	.	.	.	.	.	.	.	.
=32	=32	=32	=32	=32	=32	=32	=32	=32	=32	=32	=32	=32	=32	=32	=32	=32	=32
4ddd	4dd	2.r	24b-	24b-	8ccc]	8ccc]	4B-	4B-	4B-	8ccc]	8b-	8ccc]	4B-	4B-	2.r	2.r	4dd
.	.	.	24dd	24dd	.	.	.	.	.	.	.	.	.	.	.	.	.
.	.	.	24ff	24ff	.	.	.	.	.	.	.	.	.	.	.	.	.
.	.	.	24bb-	24bb-	8bb-	8bb-	.	.	.	8bb-	8r	8bb-	.	.	.	.	.
.	.	.	24ddd	24ddd	.	.	.	.	.	.	.	.	.	.	.	.	.
.	.	.	24ccc	24ccc	.	.	.	.	.	.	.	.	.	.	.	.	.
8ddd	8dd	.	24bb-	24bb-	24ff	24ff	4r	4B-	4B-	8ff	8bb-	8dd	8f	4B-	.	.	8dd
.	.	.	24aa	24aa	24ee-	24ee-	.	.	.	.	.	.	.	.	.	.	.
.	.	.	24bb-	24bb-	24dd	24dd	.	.	.	.	.	.	.	.	.	.	.
4.eee-	4cc	.	24ccc	24ccc	4ee-	4ee-	.	.	.	4.ff	8ccc	6..ee-	[4.f	.	.	.	4cc
.	.	.	24eee-	24eee-	.	.	.	.	.	.	.	.	.	.	.	.	.
.	.	.	24ddd	24ddd	.	.	.	.	.	.	.	.	.	.	.	.	.
.	.	.	24ccc	24ccc	.	.	8f	8A	8A	.	8r	.	.	8A	.	.	.
.	.	.	24bb-	24bb-	.	.	.	.	.	.	.	.	.	.	.	.	.
.	.	.	24aa	24aa	.	.	.	.	.	.	.	.	.	.	.	.	.
.	8cc	.	24gg	24gg	24ee-	24ee-	8f	8A	8A	.	8f	.	.	8A	.	.	8cc
.	.	.	24ff	24ff	24dd	24dd	.	.	.	.	.	24dd	.	.	.	.	.
.	.	.	24ee-	24ee-	24cc	24cc	.	.	.	.	.	24cc	.	.	.	.	.
=33	=33	=33	=33	=33	=33	=33	=33	=33	=33	=33	=33	=33	=33	=33	=33	=33	=33
4.ddd	4dd	2.r	24dd	24dd	4.dd	4.dd	4.f	4.B-	4.B-	4.ff	4.ff	4.dd	8f]	4.B-	2.r	2.r	4dd
.	.	.	24ff	24ff	.	.	.	.	.	.	.	.	.	.	.	.	.
.	.	.	24aa	24aa	.	.	.	.	.	.	.	.	.	.	.	.	.
.	.	.	24bb-	24bb-	.	.	.	.	.	.	.	.	8d	.	.	.	.
.	.	.	24ddd	24ddd	.	.	.	.	.	.	.	.	.	.	.	.	.
.	.	.	24ccc	24ccc	.	.	.	.	.	.	.	.	.	.	.	.	.
.	2r	.	24bb-	24bb-	.	.	.	.	.	.	.	.	8B-	.	.	.	2r
.	.	.	24aa	24aa	.	.	.	.	.	.	.	.	.	.	.	.	.
.	.	.	24gg	24gg	.	.	.	.	.	.	.	.	.	.	.	.	.
4.eee	.	.	24ff	24ff	4e	4e	4.g	4.G	4.G	4.bb-	4.bb-	4e	4.G	4.G	.	.	.
.	.	.	24ee	24ee	.	.	.	.	.	.	.	.	.	.	.	.	.
.	.	.	24gg	24gg	.	.	.	.	.	.	.	.	.	.	.	.	.
.	.	.	24bb-	24bb-	.	.	.	.	.	.	.	.	.	.	.	.	.
.	.	.	24gg	24gg	.	.	.	.	.	.	.	.	.	.	.	.	.
.	.	.	24ee	24ee	.	.	.	.	.	.	.	.	.	.	.	.	.
.	.	.	24bb-	24bb-	24e	24e	.	.	.	.	.	24e	.	.	.	.	.
.	.	.	24gg	24gg	24g	24g	.	.	.	.	.	24g	.	.	.	.	.
.	.	.	24ee	24ee	24b-	24b-	.	.	.	.	.	24b-	.	.	.	.	.
=34	=34	=34	=34	=34	=34	=34	=34	=34	=34	=34	=34	=34	=34	=34	=34	=34	=34
4fff	2.r	2.r	8ff	8ff	24a	24a	4f	4F	4F	4aa	4aa	8a	8F	8F	2.r	2.r	2.r
.	.	.	.	.	24f	24f	.	.	.	.	.	.	.	.	.	.	.
.	.	.	.	.	24f	24f	.	.	.	.	.	.	.	.	.	.	.
.	.	.	4r	4r	24f	24f	.	.	.	.	.	4r	4r	3..r	.	.	.
.	.	.	.	.	24g	24g	.	.	.	.	.	.	.	.	.	.	.
.	.	.	.	.	24f	24f	.	.	.	.	.	.	.	.	.	.	.
2r	.	.	.	.	24e-	24e-	8r	8r	8r	2r	2r	.	.	.	.	.	.
.	.	.	.	.	24d	24d	.	.	.	.	.	.	.	.	.	.	.
.	.	.	.	.	24c	24c	.	.	.	.	.	.	.	.	.	.	.
.	.	.	4ff	4ff	8B-	8B-	4d 4B-	4B-	4B-	.	.	4.r	24F	.	.	.	.
.	.	.	.	.	.	.	.	.	.	.	.	.	24B-	.	.	.	.
.	.	.	.	.	.	.	.	.	.	.	.	.	24d	.	.	.	.
.	.	.	.	.	8d	8d	.	.	.	.	.	.	24f	.	.	.	.
.	.	.	.	.	.	.	.	.	.	.	.	.	24d	.	.	.	.
.	.	.	.	.	.	.	.	.	.	.	.	.	24B-	.	.	.	.
.	.	.	24ee-	24ee-	24e-	24e-	8e- 8A	8F	8F	.	.	.	24A	.	.	.	.
.	.	.	24cc	24cc	24c	24c	.	.	.	.	.	.	24c	.	.	.	.
.	.	.	24a	24a	24A	24A	.	.	.	.	.	.	24e-	24r	.	.	.
=35	=35	=35	=35	=35	=35	=35	=35	=35	=35	=35	=35	=35	=35	=35	=35	=35	=35
2.r	2.r	2.r	24b-	24b-	24B-	24B-	4d 4B-	4BB-	4BB-	2.r	2.r	4.r	8d	2.r	2.r	2.r	2.r
.	.	.	24dd	24dd	24d	24d	.	.	.	.	.	.	.	.	.	.	.
.	.	.	24ff	24ff	24f	24f	.	.	.	.	.	.	.	.	.	.	.
.	.	.	24bb-	24bb-	24b-	24b-	.	.	.	.	.	.	4r	.	.	.	.
.	.	.	24ddd	24ddd	24dd	24dd	.	.	.	.	.	.	.	.	.	.	.
.	.	.	24ccc	24ccc	24cc	24cc	.	.	.	.	.	.	.	.	.	.	.
.	.	.	24bb-	24bb-	24b-	24b-	8r	8r	8r	.	.	.	.	.	.	.	.
.	.	.	24aa	24aa	24a	24a	.	.	.	.	.	.	.	.	.	.	.
.	.	.	24gg	24gg	24g	24g	.	.	.	.	.	.	.	.	.	.	.
.	.	.	8ff	8ff	4f	4f	4d 4B-	8BB-	8BB-	.	.	4.r	24F	.	.	.	.
.	.	.	.	.	.	.	.	.	.	.	.	.	24B-	.	.	.	.
.	.	.	.	.	.	.	.	.	.	.	.	.	24d	.	.	.	.
.	.	.	8r	8r	.	.	.	8D	8D	.	.	.	24f	.	.	.	.
.	.	.	.	.	.	.	.	.	.	.	.	.	24d	.	.	.	.
.	.	.	.	.	.	.	.	.	.	.	.	.	24B-	.	.	.	.
.	.	.	24ee-	24ee-	24e-	24e-	8A 8e-	8F	8F	.	.	.	24A	.	.	.	.
.	.	.	24cc	24cc	24c	24c	.	.	.	.	.	.	24c	.	.	.	.
.	.	.	24a	24a	24A	24A	.	.	.	.	.	.	24e-	.	.	.	.
=36	=36	=36	=36	=36	=36	=36	=36	=36	=36	=36	=36	=36	=36	=36	=36	=36	=36
2.r	2.r	2.r	24b-	24b-	24B-	24B-	4d 4B-	4B-	4B-	2.r	2.r	4.r	8d	2.r	2.r	2.r	2.r
.	.	.	24dd	24dd	24d	24d	.	.	.	.	.	.	.	.	.	.	.
.	.	.	24ff	24ff	24f	24f	.	.	.	.	.	.	.	.	.	.	.
.	.	.	24bb-	24bb-	24b-	24b-	.	.	.	.	.	.	4r	.	.	.	.
.	.	.	24ddd	24ddd	24dd	24dd	.	.	.	.	.	.	.	.	.	.	.
.	.	.	24ccc	24ccc	24cc	24cc	.	.	.	.	.	.	.	.	.	.	.
.	.	.	24bb-	24bb-	24b-	24b-	8r	8r	8r	.	.	.	.	.	.	.	.
.	.	.	24aa	24aa	24a	24a	.	.	.	.	.	.	.	.	.	.	.
.	.	.	24gg	24gg	24g	24g	.	.	.	.	.	.	.	.	.	.	.
.	.	.	8ff	8ff	24f	24f	4.d	4A-	4A-	.	.	4.r	24D	.	.	.	.
.	.	.	.	.	24d	24d	.	.	.	.	.	.	24F	.	.	.	.
.	.	.	.	.	24f	24f	.	.	.	.	.	.	24B-	.	.	.	.
.	.	.	8r	8r	24a-	24a-	.	.	.	.	.	.	24d	.	.	.	.
.	.	.	.	.	24f	24f	.	.	.	.	.	.	24f	.	.	.	.
.	.	.	.	.	24d	24d	.	.	.	.	.	.	24d	.	.	.	.
.	.	.	24aa-	24aa-	24B-	24B-	.	8A-	8A-	.	.	.	24B-	.	.	.	.
.	.	.	24ff	24ff	24d	24d	.	.	.	.	.	.	24f	.	.	.	.
.	.	.	24dd	24dd	24f	24f	.	.	.	.	.	.	24d	.	.	.	.
=37	=37	=37	=37	=37	=37	=37	=37	=37	=37	=37	=37	=37	=37	=37	=37	=37	=37
2.r	2.r	2.r	8ee-	8ee-	24B-	24B-	8g	8G	8G	2.r	2.r	4.r	8e-	2.r	2.r	2.r	2.r
.	.	.	.	.	24e-	24e-	.	.	.	.	.	.	.	.	.	.	.
.	.	.	.	.	24g	24g	.	.	.	.	.	.	.	.	.	.	.
.	.	.	8gg	8gg	24A	24A	8c	8E-	8E-	.	.	.	8g	.	.	.	.
.	.	.	.	.	24c	24c	.	.	.	.	.	.	.	.	.	.	.
.	.	.	.	.	24e-	24e-	.	.	.	.	.	.	.	.	.	.	.
.	.	.	8ff	8ff	24B-	24B-	8d	8D	8D	.	.	.	8f	.	.	.	.
.	.	.	.	.	24d	24d	.	.	.	.	.	.	.	.	.	.	.
.	.	.	.	.	24f	24f	.	.	.	.	.	.	.	.	.	.	.
.	.	.	24ff	24ff	8g	8g	8e-	8E-	8E-	.	.	4.r	24f	.	.	.	.
.	.	.	24ee-	24ee-	.	.	.	.	.	.	.	.	24e-	.	.	.	.
.	.	.	24ee-	24ee-	.	.	.	.	.	.	.	.	24e-	.	.	.	.
.	.	.	24ee-	24ee-	8f	8f	8f	8F	8F	.	.	.	24e-	.	.	.	.
.	.	.	24dd	24dd	.	.	.	.	.	.	.	.	24d	.	.	.	.
.	.	.	24dd	24dd	.	.	.	.	.	.	.	.	24d	.	.	.	.
.	.	.	24dd	24dd	8e-	8e-	8f	8F	8F	.	.	.	24d	.	.	.	.
.	.	.	24cc	24cc	.	.	.	.	.	.	.	.	24c	.	.	.	.
.	.	.	24cc	24cc	.	.	.	.	.	.	.	.	24c	.	.	.	.
=38	=38	=38	=38	=38	=38	=38	=38	=38	=38	=38	=38	=38	=38	=38	=38	=38	=38
2.bb-	2.dd	4D	8d 8b-	8d 8b-	24B-	24B-	4.f 4.d	4.BB-	4.BB-	2.bb-	2.ff	[4.dd	4.B-	4.B-	2.r	2.r	2.dd
.	.	.	.	.	24d	24d	.	.	.	.	.	.	.	.	.	.	.
.	.	.	.	.	24f	24f	.	.	.	.	.	.	.	.	.	.	.
.	.	.	8bb- 8dd	8bb- 8dd	24b-	24b-	.	.	.	.	.	.	.	.	.	.	.
.	.	.	.	.	24dd	24dd	.	.	.	.	.	.	.	.	.	.	.
.	.	.	.	.	24cc	24cc	.	.	.	.	.	.	.	.	.	.	.
.	.	8r	8r	8r	24b-	24b-	.	.	.	.	.	.	.	.	.	.	.
.	.	.	.	.	24a	24a	.	.	.	.	.	.	.	.	.	.	.
.	.	.	.	.	24b-	24b-	.	.	.	.	.	.	.	.	.	.	.
.	.	4D	8d 8b-	8d 8b-	24B-	24B-	4.f 4.d	4.AA-	4.AA-	.	.	4.dd]	4.AA-	4.AA-	.	.	.
.	.	.	.	.	24d	24d	.	.	.	.	.	.	.	.	.	.	.
.	.	.	.	.	24f	24f	.	.	.	.	.	.	.	.	.	.	.
.	.	.	8dd 8bb-	8dd 8bb-	24b-	24b-	.	.	.	.	.	.	.	.	.	.	.
.	.	.	.	.	24dd	24dd	.	.	.	.	.	.	.	.	.	.	.
.	.	.	.	.	24cc	24cc	.	.	.	.	.	.	.	.	.	.	.
.	.	8r	8r	8r	24b-	24b-	.	.	.	.	.	.	.	.	.	.	.
.	.	.	.	.	24a	24a	.	.	.	.	.	.	.	.	.	.	.
.	.	.	.	.	24b-	24b-	.	.	.	.	.	.	.	.	.	.	.
=39	=39	=39	=39	=39	=39	=39	=39	=39	=39	=39	=39	=39	=39	=39	=39	=39	=39
4.bb	4.g	4GG	8G 8d 8b	8G 8d 8b	24B	24B	4f 4d	4.GG	4.GG	4.bb	4.ff	4.dd	4GG	4GG	2.r	2.r	4.dd
.	.	.	.	.	24d	24d	.	.	.	.	.	.	.	.	.	.	.
.	.	.	.	.	24f	24f	.	.	.	.	.	.	.	.	.	.	.
.	.	.	8ff 8g 8ddd	8ff 8g 8ddd	24g	24g	.	.	.	.	.	.	.	.	.	.	.
.	.	.	.	.	24b	24b	.	.	.	.	.	.	.	.	.	.	.
.	.	.	.	.	24dd	24dd	.	.	.	.	.	.	.	.	.	.	.
.	.	2r	8g 8G 8gg	8g 8G 8gg	24ff	24ff	8r	.	.	.	.	.	8r	8r	.	.	.
.	.	.	.	.	24dd	24dd	.	.	.	.	.	.	.	.	.	.	.
.	.	.	.	.	24b	24b	.	.	.	.	.	.	.	.	.	.	.
[4.ccc	4.cc	.	8g 8G 8ee-	8g 8G 8ee-	8cc	8cc	24C	24C	4C	[4.ccc	4.ee-	4.ee-	24CC	24CC	.	.	4.cc
.	.	.	.	.	.	.	24E-	24E-	.	.	.	.	24EE-	24EE-	.	.	.
.	.	.	.	.	.	.	24G	24G	.	.	.	.	24GG	24GG	.	.	.
.	.	.	8r	8r	8r	8r	24c	24c	.	.	.	.	24C	24C	.	.	.
.	.	.	.	.	.	.	24e-	24e-	.	.	.	.	24E-	24E-	.	.	.
.	.	.	.	.	.	.	24d	24d	.	.	.	.	24D	24D	.	.	.
.	.	.	[8cc	[8cc	8e-	8e-	24c	24c	8r	.	.	.	24C	24C	.	.	.
.	.	.	.	.	.	.	24B	24B	.	.	.	.	24BB	24BB	.	.	.
.	.	.	.	.	.	.	24c	24c	.	.	.	.	24C	24C	.	.	.
=40	=40	=40	=40	=40	=40	=40	=40	=40	=40	=40	=40	=40	=40	=40	=40	=40	=40
8ccc]	2.r	2.r	8cc]	8cc]	4f	4f	24d	24d	4.r	8ccc]	4ff	4ff	24D	24D	2.r	2.r	2.r
.	.	.	.	.	.	.	24f	24f	.	.	.	.	24F	24F	.	.	.
.	.	.	.	.	.	.	24e-	24e-	.	.	.	.	24E-	24E-	.	.	.
8bb	.	.	8b	8b	.	.	24d	24d	.	8bb	.	.	24D	24D	.	.	.
.	.	.	.	.	.	.	24a-	24a-	.	.	.	.	24A-	24A-	.	.	.
.	.	.	.	.	.	.	24g	24g	.	.	.	.	24G	24G	.	.	.
4ddd	.	.	8dd	8dd	24a-	24a-	24f	24f	.	4ddd	8dd	8dd	24F	24F	.	.	.
.	.	.	.	.	24g	24g	24e-	24e-	.	.	.	.	24E-	24E-	.	.	.
.	.	.	.	.	24f	24f	24d	24d	.	.	.	.	24D	24D	.	.	.
.	.	.	24cc	24cc	24e-	24e-	8e-	4.c	4.c	.	[4.gg	8gg	8E-	8E-	.	.	.
.	.	.	24ee-	24ee-	24e-	24e-	.	.	.	.	.	.	.	.	.	.	.
.	.	.	24gg	24gg	24g	24g	.	.	.	.	.	.	.	.	.	.	.
8ccc	.	.	24ccc	24ccc	24cc	24cc	8c	.	.	8ccc	.	8cc	8c	8c	.	.	.
.	.	.	24eee-	24eee-	24ee-	24ee-	.	.	.	.	.	.	.	.	.	.	.
.	.	.	24ddd	24ddd	24dd	24dd	.	.	.	.	.	.	.	.	.	.	.
[8eee-	.	.	24ccc	24ccc	24cc	24cc	24c	.	.	[8eee-	.	8b-	8c	8c	.	.	.
.	.	.	24eee-	24eee-	24ee-	24ee-	24cc	.	.	.	.	.	.	.	.	.	.
.	.	.	24ddd	24ddd	24dd	24dd	24b-	.	.	.	.	.	.	.	.	.	.
=41	=41	=41	=41	=41	=41	=41	=41	=41	=41	=41	=41	=41	=41	=41	=41	=41	=41
24eee-]	4.r	4.r	24ccc	24ccc	24cc	24cc	4a	4C	4C	24eee-]	4gg]	4a	4C	4C	2.r	2.r	4.r
24eee-	.	.	24eee-	24eee-	24ee-	24ee-	.	.	.	24eee-	.	.	.	.	.	.	.
24ddd	.	.	24ddd	24ddd	24dd	24dd	.	.	.	24ddd	.	.	.	.	.	.	.
24ccc	.	.	24ccc	24ccc	24cc	24cc	.	.	.	24ccc	.	.	.	.	.	.	.
24bb-	.	.	24bb-	24bb-	24b-	24b-	.	.	.	24bb-	.	.	.	.	.	.	.
24aa	.	.	24aa	24aa	24a	24a	.	.	.	24aa	.	.	.	.	.	.	.
24gg	.	.	24gg	24gg	24g	24g	8b-	8C#	8C#	24gg	8b-	8g	8C#	8C#	.	.	.
24ff#	.	.	24ff#	24ff#	24f#	24f#	.	.	.	24ff#	.	.	.	.	.	.	.
24gg	.	.	24gg	24gg	24g	24g	.	.	.	24gg	.	.	.	.	.	.	.
4.ff#	4dd	4D	4.ff#	4.ff#	24f#	24f#	8a	24D	4.D	4.ff#	8a	8f#	24D	24D	.	.	4dd
.	.	.	.	.	24a	24a	.	24F#	.	.	.	.	24F#	24F#	.	.	.
.	.	.	.	.	24cc	24cc	.	24A	.	.	.	.	24A	24A	.	.	.
.	.	.	.	.	8c 8e-	8c 8e-	8a	24c	.	.	8ee-	8cc	24c	24c	.	.	.
.	.	.	.	.	.	.	.	24e-	.	.	.	.	24e-	24e-	.	.	.
.	.	.	.	.	.	.	.	24d	.	.	.	.	24d	24d	.	.	.
.	8r	8r	.	.	8c 8e-	8c 8e-	8a	24c	.	.	8ee-	8cc	24c	24c	.	.	8r
.	.	.	.	.	.	.	.	24B-	.	.	.	.	24B-	24B-	.	.	.
.	.	.	.	.	.	.	.	24A	.	.	.	.	24A	24A	.	.	.
=42	=42	=42	=42	=42	=42	=42	=42	=42	=42	=42	=42	=42	=42	=42	=42	=42	=42
24gg	4.r	4.r	24gg	24gg	4.B- 4.d	4.B- 4.d	24g	4.B- 4.D	2.D	24gg	4dd	4b-	4.B-	4.B-	2.r	2.r	4.r
24dd	.	.	24dd	24dd	.	.	24d	.	.	24dd	.	.	.	.	.	.	.
24gg	.	.	24gg	24gg	.	.	24g	.	.	24gg	.	.	.	.	.	.	.
24bb-	.	.	24bb-	24bb-	.	.	24b-	.	.	24bb-	.	.	.	.	.	.	.
24ddd	.	.	24ddd	24ddd	.	.	24dd	.	.	24ddd	.	.	.	.	.	.	.
24ccc	.	.	24ccc	24ccc	.	.	24cc	.	.	24ccc	.	.	.	.	.	.	.
24bb-	.	.	24bb-	24bb-	.	.	24b-	.	.	24bb-	8b-	8g	.	.	.	.	.
24aa	.	.	24aa	24aa	.	.	24a	.	.	24aa	.	.	.	.	.	.	.
24gg	.	.	24gg	24gg	.	.	24g	.	.	24gg	.	.	.	.	.	.	.
4.ff#	4dd	4D	4.ff#	4.ff#	4.e- 4.c	4.e- 4.c	8d	24D	.	4.ff#	8a	8f#	24D	24D	.	.	4dd
.	.	.	.	.	.	.	.	24F#	.	.	.	.	24F#	24F#	.	.	.
.	.	.	.	.	.	.	.	24A	.	.	.	.	24A	24A	.	.	.
.	.	.	.	.	.	.	8a	24c	.	.	8ee-	8cc	24c	24c	.	.	.
.	.	.	.	.	.	.	.	24e-	.	.	.	.	24e-	24e-	.	.	.
.	.	.	.	.	.	.	.	24d	.	.	.	.	24d	24d	.	.	.
.	8r	8r	.	.	.	.	8a	24c	.	.	8ee-	8cc	24c	24c	.	.	8r
.	.	.	.	.	.	.	.	24B-	.	.	.	.	24B-	24B-	.	.	.
.	.	.	.	.	.	.	.	24A	.	.	.	.	24A	24A	.	.	.
=43	=43	=43	=43	=43	=43	=43	=43	=43	=43	=43	=43	=43	=43	=43	=43	=43	=43
24gg	4.r	4.r	24gg	24gg	4.d 4.B-	4.d 4.B-	24g	8B-	4.D	24gg	4.dd	[4.b-	8B-	8B-	2.r	2.r	4.r
24dd	.	.	24dd	24dd	.	.	24d	.	.	24dd	.	.	.	.	.	.	.
24gg	.	.	24gg	24gg	.	.	24g	.	.	24gg	.	.	.	.	.	.	.
24bb-	.	.	24bb-	24bb-	.	.	24b-	8G	.	24bb-	.	.	8G	8G	.	.	.
24ddd	.	.	24ddd	24ddd	.	.	24dd	.	.	24ddd	.	.	.	.	.	.	.
24ccc	.	.	24ccc	24ccc	.	.	24cc	.	.	24ccc	.	.	.	.	.	.	.
24bb-	.	.	24bb-	24bb-	.	.	24b-	8D	.	24bb-	.	.	8D	8D	.	.	.
24aa	.	.	24aa	24aa	.	.	24a	.	.	24aa	.	.	.	.	.	.	.
24gg	.	.	24gg	24gg	.	.	24g	.	.	24gg	.	.	.	.	.	.	.
24ff#	4.g	8GG	24ff#	24ff#	4.c#	4.c#	24f#	4.E-	4.E-	24ff#	4.cc#	4b-]	4.E-	4.E-	.	.	4.gg
24gg	.	.	24gg	24gg	.	.	24g	.	.	24gg	.	.	.	.	.	.	.
24aa	.	.	24aa	24aa	.	.	24a	.	.	24aa	.	.	.	.	.	.	.
24bb-	.	16GG	24bb-	24bb-	.	.	24b-	.	.	24bb-	.	.	.	.	.	.	.
24ff#	.	.	24ff#	24ff#	.	.	24f#	.	.	24ff#	.	.	.	.	.	.	.
.	.	16GG	.	.	.	.	.	.	.	.	.	.	.	.	.	.	.
24gg	.	.	24gg	24gg	.	.	24g	.	.	24gg	.	.	.	.	.	.	.
24bb-	.	16GG	24bb-	24bb-	.	.	24b-	.	.	24bb-	.	8g	.	.	.	.	.
24ff#	.	.	24ff#	24ff#	.	.	24f#	.	.	24ff#	.	.	.	.	.	.	.
.	.	16GG	.	.	.	.	.	.	.	.	.	.	.	.	.	.	.
24gg	.	.	24gg	24gg	.	.	24g	.	.	24gg	.	.	.	.	.	.	.
=44	=44	=44	=44	=44	=44	=44	=44	=44	=44	=44	=44	=44	=44	=44	=44	=44	=44
24ff#	8dd	8D	24ff#	24ff#	24d	24d	4d	4D	4D	24ff#	4dd	4f#	4D	4D	2.r	2.r	8dd
24aa	.	.	24aa	24aa	24aa	24aa	.	.	.	24aa	.	.	.	.	.	.	.
24cc#	.	.	24cc#	24cc#	24cc#	24cc#	.	.	.	24cc#	.	.	.	.	.	.	.
24dd	8dd	8D	24dd	24dd	24dd	24dd	.	.	.	24dd	.	.	.	.	.	.	8dd
24ff#	.	.	24ff#	24ff#	24ff#	24ff#	.	.	.	24ff#	.	.	.	.	.	.	.
24cc#	.	.	24cc#	24cc#	24cc#	24cc#	.	.	.	24cc#	.	.	.	.	.	.	.
24dd	8dd	8D	24dd	24dd	24dd	24dd	8r	8r	8r	24dd	8r	8r	8r	8r	.	.	8dd
24a	.	.	24a	24a	24a	24a	.	.	.	24a	.	.	.	.	.	.	.
24f#	.	.	24f#	24f#	24f#	24f#	.	.	.	24f#	.	.	.	.	.	.	.
24d	8dd	8D	24d	24d	24d	24d	24d	24D	24D	24d	24dd	24dd	24D	24D	.	.	8dd
24f#	.	.	24f#	24f#	24f#	24f#	24f#	24F#	24F#	24f#	24ff#	24ff#	24F#	24F#	.	.	.
24a	.	.	24a	24a	24a	24a	24a	24A	24A	24a	24aa	24aa	24A	24A	.	.	.
24dd	8r	8r	24dd	24dd	24dd	24dd	24dd	24d	24d	24dd	24ddd	24ddd	24d	24d	.	.	8r
24a	.	.	24a	24a	24a	24a	24a	24A	24A	24a	24aa	24aa	24A	24A	.	.	.
24f#	.	.	24f#	24f#	24f#	24f#	24f#	24F#	24F#	24f#	24ff#	24ff#	24F#	24F#	.	.	.
24d	16.dd	16.D	24d	24d	24d	24d	24d	24D	24D	24d	24dd	24dd	24D	24D	.	.	16.dd
24f#	.	.	24f#	24f#	24f#	24f#	24f#	24F#	24F#	24f#	24ff#	24ff#	24F#	24F#	.	.	.
24a	.	.	24a	24a	24a	24a	24a	24A	24A	24a	24aa	24aa	24A	24A	.	.	.
.	32dd	32D	.	.	.	.	.	.	.	.	.	.	.	.	.	.	32dd
=45	=45	=45	=45	=45	=45	=45	=45	=45	=45	=45	=45	=45	=45	=45	=45	=45	=45
8dd	8dd	8D	8dd	8dd	8dd	8dd	8dd	8d	8d	8dd	8ddd	8ddd	8d	8d	2.r	2.r	8dd
2r	3..r	3..r	2r	2r	3..r	3..r	3..r	3..r	3..r	3..r	3..r	4r	3..r	3..r	.	.	3..r
.	.	.	.	.	.	.	.	.	.	.	.	4.r	.	.	.	.	.
24dd	.	.	24d	24d	.	.	.	.	.	.	.	.	.	.	.	.	.
24gg	.	.	24g	24g	.	.	.	.	.	.	.	.	.	.	.	.	.
24bb	24r	24r	24b	24b	24r	24r	24r	24r	24r	24r	24r	.	24r	24r	.	.	24r
=46	=46	=46	=46	=46	=46	=46	=46	=46	=46	=46	=46	=46	=46	=46	=46	=46	=46
8ddd	2.r	2.r	8dd	8dd	8b 8d	8b 8d	8G	8G	8G	2.r	2.r	4.r	2.r	2.r	2.r	2.r	2.r
8r	.	.	8r	8r	8r	8r	8r	8r	8r	.	.	.	.	.	.	.	.
32ddd	.	.	32dd	32dd	8c 8f#	8c 8f#	8c	8D	8D	.	.	.	.	.	.	.	.
32ccc	.	.	32cc	32cc	.	.	.	.	.	.	.	.	.	.	.	.	.
32bb	.	.	32b	32b	.	.	.	.	.	.	.	.	.	.	.	.	.
32aa	.	.	32a	32a	.	.	.	.	.	.	.	.	.	.	.	.	.
8gg	.	.	8g	8g	8g 8B	8g 8B	8B	8G	8G	.	.	4.r	.	.	.	.	.
8r	.	.	8r	8r	8r	8r	8r	8r	8r	.	.	.	.	.	.	.	.
32aa	.	.	32aa	32aa	8d	8d	8G	8BB	8BB	.	.	.	.	.	.	.	.
32gg	.	.	32gg	32gg	.	.	.	.	.	.	.	.	.	.	.	.	.
32ff#	.	.	32ff#	32ff#	.	.	.	.	.	.	.	.	.	.	.	.	.
32gg	.	.	32gg	32gg	.	.	.	.	.	.	.	.	.	.	.	.	.
=47	=47	=47	=47	=47	=47	=47	=47	=47	=47	=47	=47	=47	=47	=47	=47	=47	=47
8eee	2.r	2.r	8ee	8ee	8e	8e	8G	8C	8C	2.r	2.r	4.r	2.r	2.r	2.r	2.r	2.r
8ccc	.	.	8cc	8cc	8r	8r	8r	8r	8r	.	.	.	.	.	.	.	.
8aa	.	.	8a	8a	8c	8c	8e	8C	8C	.	.	.	.	.	.	.	.
8gg	.	.	8g	8g	8B	8B	8d	8D	8D	.	.	4.r	.	.	.	.	.
8ff#	.	.	8f#	8f#	8A	8A	4r	4r	4r	.	.	.	.	.	.	.	.
24dd	.	.	24d	24d	8r	8r	.	.	.	.	.	.	.	.	.	.	.
24ff#	.	.	24f#	24f#	.	.	.	.	.	.	.	.	.	.	.	.	.
24aa	.	.	24a	24a	.	.	.	.	.	.	.	.	.	.	.	.	.
=48	=48	=48	=48	=48	=48	=48	=48	=48	=48	=48	=48	=48	=48	=48	=48	=48	=48
8ccc	2.r	2.r	8cc	8cc	8f#	8f#	8A	8D	8D	2.r	2.r	4.r	2.r	2.r	2.r	2.r	2.r
8r	.	.	8r	8r	8r	8r	8r	8r	8r	.	.	.	.	.	.	.	.
32bb	.	.	32b	32b	8d	8d	8F#	8F#	8F#	.	.	.	.	.	.	.	.
32aa	.	.	32a	32a	.	.	.	.	.	.	.	.	.	.	.	.	.
32gg	.	.	32g	32g	.	.	.	.	.	.	.	.	.	.	.	.	.
32aa	.	.	32a	32a	.	.	.	.	.	.	.	.	.	.	.	.	.
8bb	.	.	8b	8b	8d	8d	8G	8G	8G	.	.	4.r	.	.	.	.	.
16.r	.	.	16.r	16.r	8r	8r	8r	8r	8r	.	.	.	.	.	.	.	.
32aa	.	.	32a	32a	.	.	.	.	.	.	.	.	.	.	.	.	.
16.gg	.	.	16.g	16.g	8d	8d	8G	8BB	8BB	.	.	.	.	.	.	.	.
32ff#	.	.	32f#	32f#	.	.	.	.	.	.	.	.	.	.	.	.	.
=49	=49	=49	=49	=49	=49	=49	=49	=49	=49	=49	=49	=49	=49	=49	=49	=49	=49
16.ee	3..r	3..r	16.e	16.e	8e	8e	8G	8C	8C	3..r	3..r	4.r	3..r	3..r	3..r	3..r	3..r
32dd	.	.	32d	32d	.	.	.	.	.	.	.	.	.	.	.	.	.
16.cc	.	.	16.c	16.c	8r	8r	8r	8r	8r	.	.	.	.	.	.	.	.
32b	.	.	32B	32B	.	.	.	.	.	.	.	.	.	.	.	.	.
16.a	.	.	16.A	16.A	8A	8A	8F#	8D	8D	.	.	.	.	.	.	.	.
32dd	.	.	32d	32d	.	.	.	.	.	.	.	.	.	.	.	.	.
8g	.	.	8G	8G	8G	8G	8G	8GG	8GG	.	.	4r	.	.	.	.	.
8r	.	.	8r	8r	8r	8r	8r	8r	8r	.	.	.	.	.	.	.	.
.	24r	24r	.	.	.	.	.	.	.	24r	24r	.	24r	24r	24r	24r	24r
24dd	24dd	24D	24dd	24dd	24d	24d	24d	24D	24D	24dd	24dd	24dd	24D	24D	24dd	24g	24dd
24ff#	24dd	24D	24ff#	24ff#	24f#	24f#	24f#	24F#	24F#	24ff#	24ff#	24ff#	24F#	24F#	24dd	24g	24dd
24aa	24dd	24D	24aa	24aa	24a	24a	24a	24A	24A	24aa	24aa	24aa	24A	24A	24dd	24g	24dd
=50	=50	=50	=50	=50	=50	=50	=50	=50	=50	=50	=50	=50	=50	=50	=50	=50	=50
8ccc	8dd	8D	8ccc	8ccc	8cc	8cc	8cc	8c	8c	8ccc	8ccc	8ccc	8c	8c	8dd	8g	8dd
8r	8r	8r	8r	8r	8r	8r	8r	8r	8r	8r	8r	8r	8r	8r	8r	8r	8r
24aa	24dd	24D	24dd 24aa	24dd 24aa	24ff#	24ff#	24d	24D	24D	24ff#	24aa	24ff#	24D	24D	24dd	24g	24dd
24aa	24dd	24D	24aa 24dd	24aa 24dd	24ff#	24ff#	24d	24D	24D	24ff#	24aa	24ff#	24D	24D	24dd	24g	24dd
24aa	24dd	24D	24aa 24dd	24aa 24dd	24ff#	24ff#	24d	24D	24D	24ff#	24aa	24ff#	24D	24D	24dd	24g	24dd
8bb	8dd	8GG	8bb 8dd	8bb 8dd	8gg	8gg	8d	8GG	8GG	8gg	8bb	8gg	8G	8G	8ee	8cc	8dd
4r	4r	4r	8r	8r	8r	8r	8r	8r	4r	4r	4r	4r	4r	4r	4r	4r	4r
.	.	.	24b	24b	8ee	8ee	8g	8g	.	.	.	.	.	.	.	.	.
.	.	.	24ee	24ee	.	.	.	.	.	.	.	.	.	.	.	.	.
.	.	.	24bb	24bb	.	.	.	.	.	.	.	.	.	.	.	.	.
=51	=51	=51	=51	=51	=51	=51	=51	=51	=51	=51	=51	=51	=51	=51	=51	=51	=51
2.r	2.r	2.r	8bb	8bb	4dd#	4dd#	4f#	4f#	2.r	2.r	2.r	4.r	2.r	2.r	2.r	2.r	2.r
.	.	.	8aa	8aa	.	.	.	.	.	.	.	.	.	.	.	.	.
.	.	.	24b	24b	8ee	8ee	8e	8e	.	.	.	.	.	.	.	.	.
.	.	.	24ee	24ee	.	.	.	.	.	.	.	.	.	.	.	.	.
.	.	.	24gg	24gg	.	.	.	.	.	.	.	.	.	.	.	.	.
.	.	.	8gg	8gg	8ee	8ee	4B	4B	.	.	.	4.r	.	.	.	.	.
.	.	.	8ff#	8ff#	8dd#	8dd#	.	.	.	.	.	.	.	.	.	.	.
.	.	.	24b	24b	16.g	16.g	16.e	16.e	.	.	.	.	.	.	.	.	.
.	.	.	24gg	24gg	.	.	.	.	.	.	.	.	.	.	.	.	.
.	.	.	24bb	24bb	.	.	.	.	.	.	.	.	.	.	.	.	.
.	.	.	.	.	32gg	32gg	32d	32d	.	.	.	.	.	.	.	.	.
=52	=52	=52	=52	=52	=52	=52	=52	=52	=52	=52	=52	=52	=52	=52	=52	=52	=52
3..r	2.r	2.r	8bb	8bb	8gg	8gg	4c#	4.c#	2.r	3..r	3..r	4.r	2.r	2.r	2.r	2.r	2.r
.	.	.	8aa	8aa	8ff#	8ff#	.	.	.	.	.	.	.	.	.	.	.
.	.	.	24a	24a	8ee	8ee	8a	.	.	.	.	.	.	.	.	.	.
.	.	.	24ee	24ee	.	.	.	.	.	.	.	.	.	.	.	.	.
.	.	.	24gg	24gg	.	.	.	.	.	.	.	.	.	.	.	.	.
.	.	.	8gg	8gg	8ee	8ee	8a	4d	.	.	.	4.r	.	.	.	.	.
.	.	.	8ff#	8ff#	8dd	8dd	4r	.	.	.	.	.	.	.	.	.	.
24r	.	.	.	.	.	.	.	.	.	24r	24r	.	.	.	.	.	.
24dd	.	.	24dd	24dd	8r	8r	.	8r	.	24dd	24dd	.	.	.	.	.	.
24ff#	.	.	24ff#	24ff#	.	.	.	.	.	24ff#	24ff#	.	.	.	.	.	.
24aa	.	.	24aa	24aa	.	.	.	.	.	24aa	24aa	.	.	.	.	.	.
=53	=53	=53	=53	=53	=53	=53	=53	=53	=53	=53	=53	=53	=53	=53	=53	=53	=53
[4.ddd	[2.dd	4D	24ddd	24ddd	24d	24d	24f#	24F#	24F#	[4.ddd	24dd	[4.dd	24F#	24F#	[4.g	[4.g	[2.dd
.	.	.	24ddd	24ddd	24c#	24c#	24e	24E	24E	.	24cc#	.	24E	24E	.	.	.
.	.	.	24ddd	24ddd	24d	24d	24f#	24F#	24F#	.	24dd	.	24F#	24F#	.	.	.
.	.	.	24ddd	24ddd	24e	24e	24g	24G	24G	.	24ee	.	24G	24G	.	.	.
.	.	.	24ddd	24ddd	24d	24d	24f#	24F#	24F#	.	24dd	.	24F#	24F#	.	.	.
.	.	.	24ddd	24ddd	24e	24e	24g	24G	24G	.	24ee	.	24G	24G	.	.	.
.	.	8r	24ddd	24ddd	24f#	24f#	24a	24A	24A	.	24ff#	.	24A	24A	.	.	.
.	.	.	24ddd	24ddd	24e	24e	24g	24G	24G	.	24ee	.	24G	24G	.	.	.
.	.	.	24ddd	24ddd	24f#	24f#	24a	24A	24A	.	24ff#	.	24A	24A	.	.	.
24ddd]	.	8D	4.ddd	4.ddd	24g	24g	8b	8B	8B	24ddd]	24gg	24dd]	8B	8B	24g]	24g]	.
24ddd	.	.	.	.	24b	24b	.	.	.	24ddd	24bb	24dd	.	.	24g	24g	.
24ddd	.	.	.	.	24g	24g	.	.	.	24ddd	24gg	24dd	.	.	24g	24g	.
24ddd	.	8D	.	.	24f#	24f#	8a	8A	8A	24ddd	24ff#	24dd	8A	8A	24g	24g	.
24ddd	.	.	.	.	24a	24a	.	.	.	24ddd	24aa	24dd	.	.	24g	24g	.
24ddd	.	.	.	.	24f#	24f#	.	.	.	24ddd	24ff#	24dd	.	.	24g	24g	.
24ddd	.	8D	.	.	24e	24e	8g	8G	8G	24ddd	24ee	24dd	8G	8G	24g	24g	.
24ddd	.	.	.	.	24g	24g	.	.	.	24ddd	24gg	24dd	.	.	24g	24g	.
24ddd	.	.	.	.	24e	24e	.	.	.	24ddd	24ee	24dd	.	.	24g	24g	.
=54	=54	=54	=54	=54	=54	=54	=54	=54	=54	=54	=54	=54	=54	=54	=54	=54	=54
4.ddd	4dd]	4D	24ddd	24ddd	24d	24d	24f#	4F#	4F#	4.ddd	4dd	4dd	24F#	24F#	4g	4g	4dd]
.	.	.	24ddd	24ddd	24cc#	24cc#	24e	.	.	.	.	.	24E	24E	.	.	.
.	.	.	24ddd	24ddd	24dd	24dd	24f#	.	.	.	.	.	24F#	24F#	.	.	.
.	.	.	24ddd	24ddd	24ee	24ee	24g	.	.	.	.	.	24G	24G	.	.	.
.	.	.	24ddd	24ddd	24dd	24dd	24f#	.	.	.	.	.	24F#	24F#	.	.	.
.	.	.	24ddd	24ddd	24ee	24ee	24g	.	.	.	.	.	24G	24G	.	.	.
.	2r	2r	24ddd	24ddd	24ff#	24ff#	24a	2r	2r	.	2r	8r	24A	24A	2r	2r	2r
.	.	.	24ddd	24ddd	24ee	24ee	24g	.	.	.	.	.	24G	24G	.	.	.
.	.	.	24ddd	24ddd	24ff#	24ff#	24a	.	.	.	.	.	24A	24A	.	.	.
24gg	.	.	4.ddd	4.ddd	24gg	24gg	8b	.	.	24gg	.	4.r	8B	8B	.	.	.
24bb	.	.	.	.	24bb	24bb	.	.	.	24bb	.	.	.	.	.	.	.
24gg	.	.	.	.	24gg	24gg	.	.	.	24gg	.	.	.	.	.	.	.
24ff#	.	.	.	.	24ff#	24ff#	8a	.	.	24ff#	.	.	8A	8A	.	.	.
24aa	.	.	.	.	24aa	24aa	.	.	.	24aa	.	.	.	.	.	.	.
24ff#	.	.	.	.	24ff#	24ff#	.	.	.	24ff#	.	.	.	.	.	.	.
24ff	.	.	.	.	24ff	24ff	8g#	.	.	24ff	.	.	8G#	8G#	.	.	.
24ee	.	.	.	.	24ee	24ee	.	.	.	24ee	.	.	.	.	.	.	.
24ff	.	.	.	.	24ff	24ff	.	.	.	24ff	.	.	.	.	.	.	.
=55	=55	=55	=55	=55	=55	=55	=55	=55	=55	=55	=55	=55	=55	=55	=55	=55	=55
4ee	2.r	2.r	24ccc#	24ccc#	24ee	24ee	8a	4r	4r	4ee	4.r	4.r	4A	4A	2.r	2.r	2.r
.	.	.	24aa	24aa	24a	24a	.	.	.	.	.	.	.	.	.	.	.
.	.	.	24aa	24aa	24a	24a	.	.	.	.	.	.	.	.	.	.	.
.	.	.	24aa	24aa	24a	24a	3..r	.	.	.	.	.	.	.	.	.	.
.	.	.	24aa	24aa	24a	24a	.	.	.	.	.	.	.	.	.	.	.
.	.	.	24aa	24aa	24a	24a	.	.	.	.	.	.	.	.	.	.	.
2r	.	.	24aa	24aa	24a	24a	.	24AA	24AA	2r	.	.	2r	2r	.	.	.
.	.	.	24aa	24aa	24a	24a	.	24C#	24C#	.	.	.	.	.	.	.	.
.	.	.	24aa	24aa	24a	24a	.	24E	24E	.	.	.	.	.	.	.	.
.	.	.	24aa	24aa	24a	24a	.	8G	8G	.	4ee	4cc#	.	.	.	.	.
.	.	.	24gg#	24gg#	24g#	24g#	.	.	.	.	.	.	.	.	.	.	.
.	.	.	24aa	24aa	24a	24a	.	.	.	.	.	.	.	.	.	.	.
.	.	.	24aa	24aa	24a	24a	.	8r	8r	.	.	.	.	.	.	.	.
.	.	.	24aa	24aa	24a	24a	.	.	.	.	.	.	.	.	.	.	.
.	.	.	24aa	24aa	24a	24a	.	.	.	.	.	.	.	.	.	.	.
.	.	.	24aa	24aa	24a	24a	.	32G	32G	.	8ff#	8dd	.	.	.	.	.
.	.	.	.	.	.	.	.	32F#	32F#	.	.	.	.	.	.	.	.
.	.	.	24aa	24aa	24a	24a	.	.	.	.	.	.	.	.	.	.	.
.	.	.	.	.	.	.	.	32E	32E	.	.	.	.	.	.	.	.
.	.	.	24aa	24aa	24a	24a	24r	.	.	.	.	.	.	.	.	.	.
.	.	.	.	.	.	.	.	32D	32D	.	.	.	.	.	.	.	.
=56	=56	=56	=56	=56	=56	=56	=56	=56	=56	=56	=56	=56	=56	=56	=56	=56	=56
2.r	2.r	2.r	24aa	24aa	24a	24a	4r	4r	8C#	2.r	8gg	8ee	4.r	4.r	2.r	2.r	2.r
.	.	.	24eee	24eee	24ee	24ee	.	.	.	.	.	.	.	.	.	.	.
.	.	.	24ccc#	24ccc#	24cc#	24cc#	.	.	.	.	.	.	.	.	.	.	.
.	.	.	24aa	24aa	24a	24a	.	.	3..r	.	3..r	4r	.	.	.	.	.
.	.	.	24aa	24aa	24a	24a	.	.	.	.	.	.	.	.	.	.	.
.	.	.	24aa	24aa	24a	24a	.	.	.	.	.	.	.	.	.	.	.
.	.	.	24aa	24aa	24a	24a	24A	24A	.	.	.	.	.	.	.	.	.
.	.	.	24aa	24aa	24a	24a	24c#	24c#	.	.	.	.	.	.	.	.	.
.	.	.	24aa	24aa	24a	24a	24e	24e	.	.	.	.	.	.	.	.	.
.	.	.	24aa	24aa	24a	24a	8g	8g	.	.	.	4.r	4e	4c#	.	.	.
.	.	.	24gg#	24gg#	24g#	24g#	.	.	.	.	.	.	.	.	.	.	.
.	.	.	24aa	24aa	24a	24a	.	.	.	.	.	.	.	.	.	.	.
.	.	.	24aa	24aa	24a	24a	8r	8r	.	.	.	.	.	.	.	.	.
.	.	.	24aa	24aa	24a	24a	.	.	.	.	.	.	.	.	.	.	.
.	.	.	24aa	24aa	24a	24a	.	.	.	.	.	.	.	.	.	.	.
.	.	.	24aa	24aa	24a	24a	32g	32g	.	.	.	.	8f#	8d	.	.	.
.	.	.	.	.	.	.	32f#	32f#	.	.	.	.	.	.	.	.	.
.	.	.	24aa	24aa	24a	24a	.	.	.	.	.	.	.	.	.	.	.
.	.	.	.	.	.	.	32e	32e	.	.	.	.	.	.	.	.	.
.	.	.	24aa	24aa	24a	24a	.	.	24r	.	24r	.	.	.	.	.	.
.	.	.	.	.	.	.	32d	32d	.	.	.	.	.	.	.	.	.
=57	=57	=57	=57	=57	=57	=57	=57	=57	=57	=57	=57	=57	=57	=57	=57	=57	=57
4.r	2.r	2.r	24aa	24aa	24a	24a	8c#	8c#	4.r	2.r	4.r	4.r	8g	8e	2.r	2.r	2.r
.	.	.	24eee	24eee	24ee	24ee	.	.	.	.	.	.	.	.	.	.	.
.	.	.	24ccc#	24ccc#	24cc#	24cc#	.	.	.	.	.	.	.	.	.	.	.
.	.	.	24aa	24aa	24a	24a	8r	8r	.	.	.	.	3..r	3..r	.	.	.
.	.	.	24aa	24aa	24a	24a	.	.	.	.	.	.	.	.	.	.	.
.	.	.	24aa	24aa	24a	24a	.	.	.	.	.	.	.	.	.	.	.
.	.	.	24aa	24aa	24a	24a	24A	24A	.	.	.	.	.	.	.	.	.
.	.	.	24aa	24aa	24a	24a	24c#	24c#	.	.	.	.	.	.	.	.	.
.	.	.	24aa	24aa	24a	24a	24e	24e	.	.	.	.	.	.	.	.	.
8aa	.	.	8aa	8aa	8cc#	8cc#	24g	24g	8AA	.	8cc#	4.r	.	.	.	.	.
.	.	.	.	.	.	.	24f#	24f#	.	.	.	.	.	.	.	.	.
.	.	.	.	.	.	.	24e	24e	.	.	.	.	.	.	.	.	.
8ccc#	.	.	8ccc#	8ccc#	8ee	8ee	24d	24d	8.r	.	8ee	.	.	.	.	.	.
.	.	.	.	.	.	.	24c#	24c#	.	.	.	.	.	.	.	.	.
.	.	.	.	.	.	.	24B	24B	.	.	.	.	.	.	.	.	.
8ddd	.	.	8ddd	8ddd	8ff#	8ff#	24A	24A	.	.	8ff#	.	.	.	.	.	.
.	.	.	.	.	.	.	24G	24G	.	.	.	.	.	.	.	.	.
.	.	.	.	.	.	.	.	.	48r	.	.	.	.	.	.	.	.
.	.	.	.	.	.	.	24F#	24F#	24F#	.	.	.	24r	24r	.	.	.
=58	=58	=58	=58	=58	=58	=58	=58	=58	=58	=58	=58	=58	=58	=58	=58	=58	=58
8eee	2.r	2.r	8eee	8eee	8gg	8gg	24E	24E	24E	2.r	8gg	4.r	2.r	2.r	2.r	2.r	2.r
.	.	.	.	.	.	.	24d	24D	24D	.	.	.	.	.	.	.	.
.	.	.	.	.	.	.	24c#	24C#	24C#	.	.	.	.	.	.	.	.
8ccc#	.	.	8ccc#	8ccc#	8ee	8ee	24B	24BB	24BB	.	8ee	.	.	.	.	.	.
.	.	.	.	.	.	.	24A	24AA	24AA	.	.	.	.	.	.	.	.
.	.	.	.	.	.	.	24G	24GG	24GG	.	.	.	.	.	.	.	.
8ddd	.	.	8ddd	8ddd	8dd	8dd	8F#	8FF#	8FF#	.	8dd	.	.	.	.	.	.
8bb	.	.	24bb	24bb	24b	24b	8G	8GG	8GG	.	8bb	4.r	.	.	.	.	.
.	.	.	24aa	24aa	24a	24a	.	.	.	.	.	.	.	.	.	.	.
.	.	.	24gg	24gg	24g	24g	.	.	.	.	.	.	.	.	.	.	.
8r	.	.	24ff#	24ff#	24f#	24f#	8r	8r	8r	.	8r	.	.	.	.	.	.
.	.	.	24ee	24ee	24e	24e	.	.	.	.	.	.	.	.	.	.	.
.	.	.	24dd	24dd	24d	24d	.	.	.	.	.	.	.	.	.	.	.
8ccc#	.	.	24cc#	24cc#	24c#	24c#	16.g	8AA	8AA	.	8gg	.	.	.	.	.	.
.	.	.	24aa	24aa	24a	24a	.	.	.	.	.	.	.	.	.	.	.
.	.	.	24cc#	24cc#	24c#	24c#	.	.	.	.	.	.	.	.	.	.	.
.	.	.	.	.	.	.	32e	.	.	.	.	.	.	.	.	.	.
=59	=59	=59	=59	=59	=59	=59	=59	=59	=59	=59	=59	=59	=59	=59	=59	=59	=59
8ddd	2.r	2.r	8dd	8dd	8d	8d	8d	8D	8D	4r	8ff#	4r	4r	4r	2.r	2.r	2.r
8r	.	.	8r	8r	8r	8r	8r	8r	8r	.	8r	.	.	.	.	.	.
8ddd	.	.	24d	24d	24d	24d	24d	24D	8D	8ddd	8dd	8dd	24D	24D	.	.	.
.	.	.	24dd	24dd	24dd	24dd	24dd	24d	.	.	.	.	24d	24d	.	.	.
.	.	.	24d	24d	24d	24d	24d	24D	.	.	.	.	24D	24D	.	.	.
8eee-	.	.	8ee-	8ee-	8ee-	8ee-	8ee-	8E-	8E-	8eee-	8ee-	8ee-	8e-	8e-	.	.	.
8r	.	.	8r	8r	8r	8r	8r	8r	8r	8r	8r	8r	8r	8r	.	.	.
8ccc	.	.	24c	24c	24c	24c	24c	24C	8C	8ccc	8cc	8cc	24C	24C	.	.	.
.	.	.	24cc	24cc	24cc	24cc	24cc	24c	.	.	.	.	24c	24c	.	.	.
.	.	.	24c	24c	24c	24c	24c	24C	.	.	.	.	24C	24C	.	.	.
=60	=60	=60	=60	=60	=60	=60	=60	=60	=60	=60	=60	=60	=60	=60	=60	=60	=60
8aa	2.r	2.r	8A	8A	8A	8A	8A	8AA	8AA	8aa	8a	8a	8AA	8AA	2.r	2.r	2.r
8r	.	.	8r	8r	8r	8r	8r	8r	8r	8r	8r	8r	8r	8r	.	.	.
8ddd	.	.	24d	24d	24d	24d	24d	24D	8D	8ddd	8dd	8dd	24D	24D	.	.	.
.	.	.	24dd	24dd	24dd	24dd	24dd	24d	.	.	.	.	24d	24d	.	.	.
.	.	.	24d	24d	24d	24d	24d	24D	.	.	.	.	24D	24D	.	.	.
8eee-	.	.	24e-	24e-	24e-	24e-	24e-	24E-	8E-	8eee-	8ee-	8ee-	24E-	24E-	.	.	.
.	.	.	24ee-	24ee-	24ee-	24ee-	24ee-	24e-	.	.	.	.	24e-	24e-	.	.	.
.	.	.	24e-	24e-	24e-	24e-	24e-	24E-	.	.	.	.	24E-	24E-	.	.	.
8ccc	.	.	24c	24c	24c	24c	24c	24C	8C	8ccc	8cc	8cc	24C	24C	.	.	.
.	.	.	24cc	24cc	24cc	24cc	24cc	24c	.	.	.	.	24c	24c	.	.	.
.	.	.	24c	24c	24c	24c	24c	24C	.	.	.	.	24C	24C	.	.	.
8aa	.	.	24A	24A	24A	24A	24A	24AA	8AA	8aa	8a	8a	24AA	24AA	.	.	.
.	.	.	24cc	24cc	24cc	24cc	24cc	24c	.	.	.	.	24A	24A	.	.	.
.	.	.	24a	24a	24a	24a	24a	24A	.	.	.	.	24AA	24AA	.	.	.
=61	=61	=61	=61	=61	=61	=61	=61	=61	=61	=61	=61	=61	=61	=61	=61	=61	=61
8ff#	2.r	2.r	8f#	8f#	8f#	8f#	8f#	8F#	8FF#	8ff#	8f#	8f#	8FF#	8FF#	2.r	2.r	2.r
2r	.	.	8r	8r	4r	4r	4r	4r	4r	3..r	3..r	4r	3..r	3..r	.	.	.
.	.	.	24d	24d	.	.	.	.	.	.	.	.	.	.	.	.	.
.	.	.	24f#	24f#	.	.	.	.	.	.	.	.	.	.	.	.	.
.	.	.	24a	24a	.	.	.	.	.	.	.	.	.	.	.	.	.
.	.	.	8cc	8cc	8f#	8f#	8A	8D	8D	.	.	4.r	.	.	.	.	.
.	.	.	8r	8r	4r	4r	4r	4r	4r	.	.	.	.	.	.	.	.
24dd	.	.	24d	24d	.	.	.	.	.	.	.	.	.	.	.	.	.
24ff#	.	.	24f#	24f#	.	.	.	.	.	.	.	.	.	.	.	.	.
24aa	.	.	24a	24a	.	.	.	.	.	24r	24r	.	24r	24r	.	.	.
=62	=62	=62	=62	=62	=62	=62	=62	=62	=62	=62	=62	=62	=62	=62	=62	=62	=62
8ccc	2.r	2.r	8cc	8cc	8f#	8f#	8A	8d	8d	2.r	2.r	4.r	2.r	2.r	2.r	2.r	2.r
24r	.	.	24r	24r	4r	4r	4r	4r	4r	.	.	.	.	.	.	.	.
24gg#	.	.	24g#	24g#	.	.	.	.	.	.	.	.	.	.	.	.	.
24aa	.	.	24a	24a	.	.	.	.	.	.	.	.	.	.	.	.	.
24ccc	.	.	24cc	24cc	.	.	.	.	.	.	.	.	.	.	.	.	.
24gg#	.	.	24g#	24g#	.	.	.	.	.	.	.	.	.	.	.	.	.
24aa	.	.	24a	24a	.	.	.	.	.	.	.	.	.	.	.	.	.
8ccc	.	.	8cc	8cc	8a 8f#	8a 8f#	8A	8D	8D	.	.	4.r	.	.	.	.	.
4r	.	.	8r	8r	4r	4r	4r	4r	4r	.	.	.	.	.	.	.	.
.	.	.	24dd	24dd	.	.	.	.	.	.	.	.	.	.	.	.	.
.	.	.	24gg	24gg	.	.	.	.	.	.	.	.	.	.	.	.	.
.	.	.	24bb	24bb	.	.	.	.	.	.	.	.	.	.	.	.	.
=63	=63	=63	=63	=63	=63	=63	=63	=63	=63	=63	=63	=63	=63	=63	=63	=63	=63
2.r	2.r	2.r	24ddd	24ddd	8g 8B	8g 8B	8d	8G	8G	2.r	2.r	4.r	2.r	2.r	2.r	2.r	2.r
.	.	.	24bb	24bb	.	.	.	.	.	.	.	.	.	.	.	.	.
.	.	.	24gg	24gg	.	.	.	.	.	.	.	.	.	.	.	.	.
.	.	.	24ff#	24ff#	8r	8r	8r	8r	8r	.	.	.	.	.	.	.	.
.	.	.	24ee	24ee	.	.	.	.	.	.	.	.	.	.	.	.	.
.	.	.	24dd	24dd	.	.	.	.	.	.	.	.	.	.	.	.	.
.	.	.	24cc	24cc	8f# 8c	8f# 8c	8d	8D	8D	.	.	.	.	.	.	.	.
.	.	.	24b	24b	.	.	.	.	.	.	.	.	.	.	.	.	.
.	.	.	24a	24a	.	.	.	.	.	.	.	.	.	.	.	.	.
.	.	.	24g	24g	8g 8B	8g 8B	8d	8G	8G	.	.	4.r	.	.	.	.	.
.	.	.	24b	24b	.	.	.	.	.	.	.	.	.	.	.	.	.
.	.	.	24dd	24dd	.	.	.	.	.	.	.	.	.	.	.	.	.
.	.	.	24gg	24gg	8r	8r	8r	8r	8r	.	.	.	.	.	.	.	.
.	.	.	24ff#	24ff#	.	.	.	.	.	.	.	.	.	.	.	.	.
.	.	.	24aa	24aa	.	.	.	.	.	.	.	.	.	.	.	.	.
.	.	.	24gg	24gg	8d	8d	8g	8BB	8BB	.	.	.	.	.	.	.	.
.	.	.	24dd	24dd	.	.	.	.	.	.	.	.	.	.	.	.	.
.	.	.	24b	24b	.	.	.	.	.	.	.	.	.	.	.	.	.
=64	=64	=64	=64	=64	=64	=64	=64	=64	=64	=64	=64	=64	=64	=64	=64	=64	=64
2.r	2.r	2.r	24dd#	24dd#	8e	8e	8a	8C	8C	2.r	2.r	4.r	2.r	2.r	2.r	2.r	2.r
.	.	.	24ee	24ee	.	.	.	.	.	.	.	.	.	.	.	.	.
.	.	.	24b	24b	.	.	.	.	.	.	.	.	.	.	.	.	.
.	.	.	24cc	24cc	8r	8r	8r	8r	8r	.	.	.	.	.	.	.	.
.	.	.	24g#	24g#	.	.	.	.	.	.	.	.	.	.	.	.	.
.	.	.	24a	24a	.	.	.	.	.	.	.	.	.	.	.	.	.
.	.	.	24e	24e	8c	8c	8c	8C	8C	.	.	.	.	.	.	.	.
.	.	.	24cc	24cc	.	.	.	.	.	.	.	.	.	.	.	.	.
.	.	.	24a	24a	.	.	.	.	.	.	.	.	.	.	.	.	.
.	.	.	8g	8g	8B	8B	8d	8D	8D	.	.	4.r	.	.	.	.	.
.	.	.	8f#	8f#	8A	8A	4r	4r	4r	.	.	.	.	.	.	.	.
.	.	.	24d	24d	8r	8r	.	.	.	.	.	.	.	.	.	.	.
.	.	.	24f#	24f#	.	.	.	.	.	.	.	.	.	.	.	.	.
.	.	.	24a	24a	.	.	.	.	.	.	.	.	.	.	.	.	.
=65	=65	=65	=65	=65	=65	=65	=65	=65	=65	=65	=65	=65	=65	=65	=65	=65	=65
2.r	2.r	2.r	24cc	24cc	8f#	8f#	8A	8D	8D	2.r	2.r	4.r	2.r	2.r	2.r	2.r	2.r
.	.	.	24g#	24g#	.	.	.	.	.	.	.	.	.	.	.	.	.
.	.	.	24a	24a	.	.	.	.	.	.	.	.	.	.	.	.	.
.	.	.	24ee	24ee	8r	8r	8r	8r	8r	.	.	.	.	.	.	.	.
.	.	.	24b	24b	.	.	.	.	.	.	.	.	.	.	.	.	.
.	.	.	24cc	24cc	.	.	.	.	.	.	.	.	.	.	.	.	.
.	.	.	24aa	24aa	8d	8d	8f#	8F#	8F#	.	.	.	.	.	.	.	.
.	.	.	24ff#	24ff#	.	.	.	.	.	.	.	.	.	.	.	.	.
.	.	.	24cc	24cc	.	.	.	.	.	.	.	.	.	.	.	.	.
.	.	.	24b	24b	8d	8d	8g	8G	8G	.	.	4.r	.	.	.	.	.
.	.	.	24ee	24ee	.	.	.	.	.	.	.	.	.	.	.	.	.
.	.	.	24dd	24dd	.	.	.	.	.	.	.	.	.	.	.	.	.
.	.	.	24gg	24gg	8r	8r	8r	8r	8r	.	.	.	.	.	.	.	.
.	.	.	24ff#	24ff#	.	.	.	.	.	.	.	.	.	.	.	.	.
.	.	.	24aa	24aa	.	.	.	.	.	.	.	.	.	.	.	.	.
.	.	.	24gg	24gg	8d	8d	8B	8BB	8BB	.	.	.	.	.	.	.	.
.	.	.	24bb	24bb	.	.	.	.	.	.	.	.	.	.	.	.	.
.	.	.	24dd	24dd	.	.	.	.	.	.	.	.	.	.	.	.	.
=66	=66	=66	=66	=66	=66	=66	=66	=66	=66	=66	=66	=66	=66	=66	=66	=66	=66
2.r	2.r	2.r	24dd#	24dd#	8G	8G	8c	8C	8C	2.r	2.r	4.r	2.r	2.r	4.r	4.r	2.r
.	.	.	24ee	24ee	.	.	.	.	.	.	.	.	.	.	.	.	.
.	.	.	24ff#	24ff#	.	.	.	.	.	.	.	.	.	.	.	.	.
.	.	.	24gg	24gg	8r	8r	8r	8r	8r	.	.	.	.	.	.	.	.
.	.	.	24a	24a	.	.	.	.	.	.	.	.	.	.	.	.	.
.	.	.	24b	24b	.	.	.	.	.	.	.	.	.	.	.	.	.
.	.	.	24cc	24cc	8cc	8cc	8f#	8D	8D	.	.	.	.	.	.	.	.
.	.	.	24e	24e	.	.	.	.	.	.	.	.	.	.	.	.	.
.	.	.	24f#	24f#	.	.	.	.	.	.	.	.	.	.	.	.	.
.	.	.	8g	8g	8b	8b	8g	8E	8E	.	.	4.r	.	.	24C	24CC	.
.	.	.	.	.	.	.	.	.	.	.	.	.	.	.	24C	24CC	.
.	.	.	.	.	.	.	.	.	.	.	.	.	.	.	24C	24CC	.
.	.	.	8r	8r	4r	4r	4r	4r	4r	.	.	.	.	.	24C	24CC	.
.	.	.	.	.	.	.	.	.	.	.	.	.	.	.	24C	24CC	.
.	.	.	.	.	.	.	.	.	.	.	.	.	.	.	24C	24CC	.
.	.	.	24g	24g	.	.	.	.	.	.	.	.	.	.	24C	24CC	.
.	.	.	24dd	24dd	.	.	.	.	.	.	.	.	.	.	24C	24CC	.
.	.	.	24b	24b	.	.	.	.	.	.	.	.	.	.	24C	24CC	.
=67	=67	=67	=67	=67	=67	=67	=67	=67	=67	=67	=67	=67	=67	=67	=67	=67	=67
3..r	2.r	2.r	4.r	8cc	2.r	8g	8e	8e	8e	3..r	3..r	4.r	3..r	3..r	24C	24CC	2.r
.	.	.	.	.	.	.	.	.	.	.	.	.	.	.	24C	24CC	.
.	.	.	.	.	.	.	.	.	.	.	.	.	.	.	24C	24CC	.
.	.	.	.	8r	.	8r	8r	8r	8r	.	.	.	.	.	24C	24CC	.
.	.	.	.	.	.	.	.	.	.	.	.	.	.	.	24C	24CC	.
.	.	.	.	.	.	.	.	.	.	.	.	.	.	.	24C	24CC	.
.	.	.	.	24cc	.	8g	8e	8e	8e	.	.	.	.	.	24C	24CC	.
.	.	.	.	24gg	.	.	.	.	.	.	.	.	.	.	24C	24CC	.
.	.	.	.	24cc	.	.	.	.	.	.	.	.	.	.	24C	24CC	.
.	.	.	4.r	8b	.	8g	8d	8d	8d	.	.	4r	.	.	24C	24CC	.
.	.	.	.	.	.	.	.	.	.	.	.	.	.	.	24C	24CC	.
.	.	.	.	.	.	.	.	.	.	.	.	.	.	.	24C	24CC	.
.	.	.	.	8r	.	8r	8r	8r	8r	.	.	.	.	.	24C	24CC	.
.	.	.	.	.	.	.	.	.	.	.	.	.	.	.	24C	24CC	.
24r	.	.	.	.	.	.	.	.	.	24r	24r	.	24r	24r	24C	24CC	.
8gg	.	.	.	24b	.	8g	8d	8d	8d	8gg	8gg	8b	8d	8d	24C	24CC	.
.	.	.	.	24gg	.	.	.	.	.	.	.	.	.	.	24C	24CC	.
.	.	.	.	24b	.	.	.	.	.	.	.	.	.	.	24C	24CC	.
=68	=68	=68	=68	=68	=68	=68	=68	=68	=68	=68	=68	=68	=68	=68	=68	=68	=68
[3..gg	[3..g	2.r	4.r	24a	4.r	4a	4c	4c	4c	[3..gg	[3..gg	4a	4c	4c	24C	24CC	[3..g
.	.	.	.	24gg	.	.	.	.	.	.	.	.	.	.	24C	24CC	.
.	.	.	.	24gg	.	.	.	.	.	.	.	.	.	.	24C	24CC	.
.	.	.	.	24gg	.	.	.	.	.	.	.	.	.	.	24C	24CC	.
.	.	.	.	24gg	.	.	.	.	.	.	.	.	.	.	24C	24CC	.
.	.	.	.	24gg	.	.	.	.	.	.	.	.	.	.	24C	24CC	.
.	.	.	.	24b-	.	8g	8c#	8c#	8c#	.	.	8b-	8c#	8c#	24C	24CC	.
.	.	.	.	24gg	.	.	.	.	.	.	.	.	.	.	24C	24CC	.
.	.	.	.	24gg	.	.	.	.	.	.	.	.	.	.	24C	24CC	.
.	.	.	4gg 4b	4gg 4b	4g	4g	4d	4d	4d	.	.	4b	4d	4d	4C	4CC	.
24gg]	24g]	.	.	.	.	.	.	.	.	24gg]	24gg]	.	.	.	.	.	24g]
8r	8r	.	24d	8r	8r	8r	8r	8r	8r	8r	8r	8r	8r	8r	8r	8r	8r
.	.	.	24g	.	.	.	.	.	.	.	.	.	.	.	.	.	.
.	.	.	24b	.	.	.	.	.	.	.	.	.	.	.	.	.	.
=69	=69	=69	=69	=69	=69	=69	=69	=69	=69	=69	=69	=69	=69	=69	=69	=69	=69
[2.ddd	2.r	2.r	24dd	8b 8g	4r	8b 8d	4d	4D	4D	2.r	4.bb	4.gg	2.r	2.r	4.cc	4.e	2.r
.	.	.	24gg	.	.	.	.	.	.	.	.	.	.	.	.	.	.
.	.	.	24ff#	.	.	.	.	.	.	.	.	.	.	.	.	.	.
.	.	.	24ee	4r	.	4r	.	.	.	.	.	.	.	.	.	.	.
.	.	.	24dd	.	.	.	.	.	.	.	.	.	.	.	.	.	.
.	.	.	24cc	.	.	.	.	.	.	.	.	.	.	.	.	.	.
.	.	.	24b	.	24g	.	8r	8r	8r	.	.	.	.	.	.	.	.
.	.	.	24a	.	24a	.	.	.	.	.	.	.	.	.	.	.	.
.	.	.	24g	.	24b	.	.	.	.	.	.	.	.	.	.	.	.
.	.	.	8f#	8cc 8f#	24cc	8a 8d	4d	4D	4D	.	4.ccc	4.ff#	.	.	4.dd	4.g	.
.	.	.	.	.	24aa	.	.	.	.	.	.	.	.	.	.	.	.
.	.	.	.	.	24gg	.	.	.	.	.	.	.	.	.	.	.	.
.	.	.	8r	4r	24ff#	4r	.	.	.	.	.	.	.	.	.	.	.
.	.	.	.	.	24ee	.	.	.	.	.	.	.	.	.	.	.	.
.	.	.	.	.	24dd	.	.	.	.	.	.	.	.	.	.	.	.
.	.	.	24a	.	24cc	.	8r	8r	8r	.	.	.	.	.	.	.	.
.	.	.	24b	.	24b	.	.	.	.	.	.	.	.	.	.	.	.
.	.	.	24cc	.	24a	.	.	.	.	.	.	.	.	.	.	.	.
=70	=70	=70	=70	=70	=70	=70	=70	=70	=70	=70	=70	=70	=70	=70	=70	=70	=70
2.ddd]	2.r	2.r	24dd	8g 8b	8g	8b 8d	4d	4D	4D	2.r	4.bb	4.gg	2.r	2.r	4.cc	4.e	2.r
.	.	.	24gg	.	.	.	.	.	.	.	.	.	.	.	.	.	.
.	.	.	24ff#	.	.	.	.	.	.	.	.	.	.	.	.	.	.
.	.	.	24ee	4r	8r	4r	.	.	.	.	.	.	.	.	.	.	.
.	.	.	24dd	.	.	.	.	.	.	.	.	.	.	.	.	.	.
.	.	.	24cc	.	.	.	.	.	.	.	.	.	.	.	.	.	.
.	.	.	24b	.	24g	.	8r	8r	8r	.	.	.	.	.	.	.	.
.	.	.	24a	.	24a	.	.	.	.	.	.	.	.	.	.	.	.
.	.	.	24g	.	24b	.	.	.	.	.	.	.	.	.	.	.	.
.	.	.	8f#	8cc 8f#	24cc	8f#	4d	4D	4D	.	4ccc	4ff#	.	.	4.dd	4.g	.
.	.	.	.	.	24aa	.	.	.	.	.	.	.	.	.	.	.	.
.	.	.	.	.	24gg	.	.	.	.	.	.	.	.	.	.	.	.
.	.	.	8r	4r	24ff#	4r	.	.	.	.	.	.	.	.	.	.	.
.	.	.	.	.	24ee	.	.	.	.	.	.	.	.	.	.	.	.
.	.	.	.	.	24dd	.	.	.	.	.	.	.	.	.	.	.	.
.	.	.	8dd	.	24cc	.	8r	8r	8r	.	8ff#	8aa	.	.	.	.	.
.	.	.	.	.	24b	.	.	.	.	.	.	.	.	.	.	.	.
.	.	.	.	.	24a	.	.	.	.	.	.	.	.	.	.	.	.
=71	=71	=71	=71	=71	=71	=71	=71	=71	=71	=71	=71	=71	=71	=71	=71	=71	=71
8bb	2.r	2.r	4.gg	8g 8b	24g	8b 8d	4G	4GG	4GG	2.r	4.gg	8gg	2.d	2.B	4cc	4e	2.r
.	.	.	.	.	24d	.	.	.	.	.	.	.	.	.	.	.	.
.	.	.	.	.	24B	.	.	.	.	.	.	.	.	.	.	.	.
3..r	.	.	.	4r	24G	4r	.	.	.	.	.	4r	.	.	.	.	.
.	.	.	.	.	24B	.	.	.	.	.	.	.	.	.	.	.	.
.	.	.	.	.	24d	.	.	.	.	.	.	.	.	.	.	.	.
.	.	.	.	.	24G	.	8r	8r	8r	.	.	.	.	.	2r	2r	.
.	.	.	.	.	24B	.	.	.	.	.	.	.	.	.	.	.	.
.	.	.	.	.	24d	.	.	.	.	.	.	.	.	.	.	.	.
.	.	.	4.ff	8d 8B	24G	8B	4G	4GG	4GG	.	4.ff	4.r	.	.	.	.	.
.	.	.	.	.	24B	.	.	.	.	.	.	.	.	.	.	.	.
.	.	.	.	.	24d	.	.	.	.	.	.	.	.	.	.	.	.
.	.	.	.	4r	24G	4r	.	.	.	.	.	.	.	.	.	.	.
.	.	.	.	.	24B	.	.	.	.	.	.	.	.	.	.	.	.
.	.	.	.	.	24d	.	.	.	.	.	.	.	.	.	.	.	.
.	.	.	.	.	24G	.	8r	8r	8r	.	.	.	.	.	.	.	.
.	.	.	.	.	24B	.	.	.	.	.	.	.	.	.	.	.	.
24r	.	.	.	.	24d	.	.	.	.	.	.	.	.	.	.	.	.
=72	=72	=72	=72	=72	=72	=72	=72	=72	=72	=72	=72	=72	=72	=72	=72	=72	=72
2.r	2.r	2.r	[4.ee-	8e-	24G	8B-	4.G	4.G	4.GG	2.r	2ee-	[4.ee-	2e-	4.B-	2.r	2.r	2.r
.	.	.	.	.	24B-	.	.	.	.	.	.	.	.	.	.	.	.
.	.	.	.	.	24e-	.	.	.	.	.	.	.	.	.	.	.	.
.	.	.	.	4r	24G	4r	.	.	.	.	.	.	.	.	.	.	.
.	.	.	.	.	24B-	.	.	.	.	.	.	.	.	.	.	.	.
.	.	.	.	.	24e-	.	.	.	.	.	.	.	.	.	.	.	.
.	.	.	.	.	24G	.	.	.	.	.	.	.	.	.	.	.	.
.	.	.	.	.	24B-	.	.	.	.	.	.	.	.	.	.	.	.
.	.	.	.	.	24e-	.	.	.	.	.	.	.	.	.	.	.	.
.	.	.	8ee-]	8e-	24A-	8c	4.A-	4.A-	4.AA-	.	.	8ee-]	.	8c	.	.	.
.	.	.	.	.	24c	.	.	.	.	.	.	.	.	.	.	.	.
.	.	.	.	.	24e-	.	.	.	.	.	.	.	.	.	.	.	.
.	.	.	8cc	4r	24A-	4r	.	.	.	.	8cc	8cc	8c	8A-	.	.	.
.	.	.	.	.	24c	.	.	.	.	.	.	.	.	.	.	.	.
.	.	.	.	.	24e-	.	.	.	.	.	.	.	.	.	.	.	.
.	.	.	16a-	.	24A-	.	.	.	.	.	16aa-	16aa-	8f	8F	.	.	.
.	.	.	.	.	24c	.	.	.	.	.	.	.	.	.	.	.	.
.	.	.	16f	.	.	.	.	.	.	.	16ff	16ff	.	.	.	.	.
.	.	.	.	.	24e-	.	.	.	.	.	.	.	.	.	.	.	.
=73	=73	=73	=73	=73	=73	=73	=73	=73	=73	=73	=73	=73	=73	=73	=73	=73	=73
2.r	2.r	2.r	4.e-	8g	24G	8e-	4.B-	2.B-	4BB-	2.r	4.ee-	4.ee-	4.e-	4.G	2.r	2.r	2.r
.	.	.	.	.	24B-	.	.	.	.	.	.	.	.	.	.	.	.
.	.	.	.	.	24e-	.	.	.	.	.	.	.	.	.	.	.	.
.	.	.	.	4r	24G	4r	.	.	.	.	.	.	.	.	.	.	.
.	.	.	.	.	24B-	.	.	.	.	.	.	.	.	.	.	.	.
.	.	.	.	.	24e-	.	.	.	.	.	.	.	.	.	.	.	.
.	.	.	.	.	24G	.	.	.	8r	.	.	.	.	.	.	.	.
.	.	.	.	.	24B-	.	.	.	.	.	.	.	.	.	.	.	.
.	.	.	.	.	24e-	.	.	.	.	.	.	.	.	.	.	.	.
.	.	.	8f	8f	24A-	8d	4.B-	.	4BB-	.	8ff	8ff	4.d	4.A-	.	.	.
.	.	.	.	.	24B-	.	.	.	.	.	.	.	.	.	.	.	.
.	.	.	.	.	24d	.	.	.	.	.	.	.	.	.	.	.	.
.	.	.	8e-	4r	24A-	4r	.	.	.	.	8ee-	8ee-	.	.	.	.	.
.	.	.	.	.	24B-	.	.	.	.	.	.	.	.	.	.	.	.
.	.	.	.	.	24d	.	.	.	.	.	.	.	.	.	.	.	.
.	.	.	8f	.	24A-	.	.	.	8r	.	8ff	8ff	.	.	.	.	.
.	.	.	.	.	24B-	.	.	.	.	.	.	.	.	.	.	.	.
.	.	.	.	.	24d	.	.	.	.	.	.	.	.	.	.	.	.
=74	=74	=74	=74	=74	=74	=74	=74	=74	=74	=74	=74	=74	=74	=74	=74	=74	=74
8gg	2.r	2.r	24e-	8g 8B-	8G	8G 8e-	8B-	4E-	4E-	2.r	8ee-	8b-	8e-	8G	2.r	2.r	2.r
.	.	.	24g	.	.	.	.	.	.	.	.	.	.	.	.	.	.
.	.	.	24b-	.	.	.	.	.	.	.	.	.	.	.	.	.	.
4r	.	.	24ee-	4r	3..r	4r	4r	.	.	.	4r	4r	4r	4r	.	.	.
.	.	.	24gg	.	.	.	.	.	.	.	.	.	.	.	.	.	.
.	.	.	24ff	.	.	.	.	.	.	.	.	.	.	.	.	.	.
.	.	.	24ee-	.	.	.	.	8r	8r	.	.	.	.	.	.	.	.
.	.	.	24dd	.	.	.	.	.	.	.	.	.	.	.	.	.	.
.	.	.	24cc	.	.	.	.	.	.	.	.	.	.	.	.	.	.
8aa-	.	.	24b-	8a- 8B-	.	8d	8B- 8d	4F	4F	.	8dd	8b-	8F	8F	.	.	.
.	.	.	24dd	.	.	.	.	.	.	.	.	.	.	.	.	.	.
.	.	.	24ff	.	.	.	.	.	.	.	.	.	.	.	.	.	.
4r	.	.	24aa-	4r	.	4r	4r	.	.	.	4r	4r	4r	4r	.	.	.
.	.	.	24ccc	.	.	.	.	.	.	.	.	.	.	.	.	.	.
.	.	.	24bb-	.	.	.	.	.	.	.	.	.	.	.	.	.	.
.	.	.	24aa-	.	.	.	.	8r	8r	.	.	.	.	.	.	.	.
.	.	.	24gg	.	.	.	.	.	.	.	.	.	.	.	.	.	.
.	.	.	24ff	.	24r	.	.	.	.	.	.	.	.	.	.	.	.
=75	=75	=75	=75	=75	=75	=75	=75	=75	=75	=75	=75	=75	=75	=75	=75	=75	=75
8bb-	2.r	2.r	24ee	8e 8b-	4.r	8d-	8G 8e	4G	4G	2.r	8dd-	8ee	8G	8G	2.r	2.r	2.r
.	.	.	24gg	.	.	.	.	.	.	.	.	.	.	.	.	.	.
.	.	.	24bb-	.	.	.	.	.	.	.	.	.	.	.	.	.	.
4r	.	.	24ddd-	4r	.	4r	4r	.	.	.	4r	4r	4r	4r	.	.	.
.	.	.	24bb-	.	.	.	.	.	.	.	.	.	.	.	.	.	.
.	.	.	24aa-	.	.	.	.	.	.	.	.	.	.	.	.	.	.
.	.	.	24gg	.	.	.	.	8r	8r	.	.	.	.	.	.	.	.
.	.	.	24ff	.	.	.	.	.	.	.	.	.	.	.	.	.	.
.	.	.	24ee	.	.	.	.	.	.	.	.	.	.	.	.	.	.
8aa-	.	.	4.ff	8f 8c	24f	8f 24c	8f 8A-	4A-	4A-	.	8cc	8ff	8A-	8A-	.	.	.
.	.	.	.	.	24a-	.	.	.	.	.	.	.	.	.	.	.	.
.	.	.	.	.	24cc	.	.	.	.	.	.	.	.	.	.	.	.
4r	.	.	.	4r	24ff	4r	4r	.	.	.	4r	4r	4r	4r	.	.	.
.	.	.	.	.	24cc	.	.	.	.	.	.	.	.	.	.	.	.
.	.	.	.	.	24b-	.	.	.	.	.	.	.	.	.	.	.	.
.	.	.	.	.	24a-	.	.	8r	8r	.	.	.	.	.	.	.	.
.	.	.	.	.	24g	.	.	.	.	.	.	.	.	.	.	.	.
.	.	.	.	.	24f	.	.	.	.	.	.	.	.	.	.	.	.
=76	=76	=76	=76	=76	=76	=76	=76	=76	=76	=76	=76	=76	=76	=76	=76	=76	=76
8ccc	2.r	2.r	4.ff#	8ee- 8f#	24e-	8cc	8e- 8c	4A	4A	2.r	8ee-	8ff#	8A	8A	2.r	2.r	2.r
.	.	.	.	.	24ee-	.	.	.	.	.	.	.	.	.	.	.	.
.	.	.	.	.	24dd	.	.	.	.	.	.	.	.	.	.	.	.
4r	.	.	.	4r	24cc	4r	4r	.	.	.	4r	4r	4r	4r	.	.	.
.	.	.	.	.	24b-	.	.	.	.	.	.	.	.	.	.	.	.
.	.	.	.	.	24a	.	.	.	.	.	.	.	.	.	.	.	.
.	.	.	.	.	24g	.	.	8r	8r	.	.	.	.	.	.	.	.
.	.	.	.	.	24f#	.	.	.	.	.	.	.	.	.	.	.	.
.	.	.	.	.	24a	.	.	.	.	.	.	.	.	.	.	.	.
8bb-	.	.	4.gg	8dd 8g	24g	8b- 8d	8d 8G	4B-	4B-	.	8dd	8gg	8B-	8B-	.	.	.
.	.	.	.	.	24b-	.	.	.	.	.	.	.	.	.	.	.	.
.	.	.	.	.	24dd	.	.	.	.	.	.	.	.	.	.	.	.
4r	.	.	.	4r	24gg	4r	4r	.	.	.	4r	4r	4r	4r	.	.	.
.	.	.	.	.	24dd	.	.	.	.	.	.	.	.	.	.	.	.
.	.	.	.	.	24cc	.	.	.	.	.	.	.	.	.	.	.	.
.	.	.	.	.	24b-	.	.	8r	8r	.	.	.	.	.	.	.	.
.	.	.	.	.	24a	.	.	.	.	.	.	.	.	.	.	.	.
.	.	.	.	.	24g	.	.	.	.	.	.	.	.	.	.	.	.
=77	=77	=77	=77	=77	=77	=77	=77	=77	=77	=77	=77	=77	=77	=77	=77	=77	=77
4.r	2.r	2.r	24bb-	8cc# 8g	4.cc#	8b-	8G	4E-	4E-	2.r	8gg	8cc#	8E-	8E-	2.r	2.r	2.r
.	.	.	24ff#	.	.	.	.	.	.	.	.	.	.	.	.	.	.
.	.	.	24gg	.	.	.	.	.	.	.	.	.	.	.	.	.	.
.	.	.	24bb-	4r	.	4r	4r	.	.	.	4r	4r	4r	4r	.	.	.
.	.	.	24ff#	.	.	.	.	.	.	.	.	.	.	.	.	.	.
.	.	.	24gg	.	.	.	.	.	.	.	.	.	.	.	.	.	.
.	.	.	24cc#	.	.	.	.	8r	8r	.	.	.	.	.	.	.	.
.	.	.	24bb-	.	.	.	.	.	.	.	.	.	.	.	.	.	.
.	.	.	24gg	.	.	.	.	.	.	.	.	.	.	.	.	.	.
8dd	.	.	24ff#	8dd 8f#	8dd	8dd	8A	[4.D	[4.D	.	8ff#	8dd	8D	8D	.	.	.
.	.	.	24aa	.	.	.	.	.	.	.	.	.	.	.	.	.	.
.	.	.	24ff#	.	.	.	.	.	.	.	.	.	.	.	.	.	.
8ddd	.	.	24dd	4r	4r	4r	4r	.	.	.	4r	4r	4r	4r	.	.	.
.	.	.	24a	.	.	.	.	.	.	.	.	.	.	.	.	.	.
.	.	.	24f#	.	.	.	.	.	.	.	.	.	.	.	.	.	.
8ddd	.	.	24d	.	.	.	.	.	.	.	.	.	.	.	.	.	.
.	.	.	24dd	.	.	.	.	.	.	.	.	.	.	.	.	.	.
.	.	.	24dd	.	.	.	.	.	.	.	.	.	.	.	.	.	.
=78	=78	=78	=78	=78	=78	=78	=78	=78	=78	=78	=78	=78	=78	=78	=78	=78	=78
4ddd	2.r	2.r	24dd	4dd	2.r	4f	4g#	2.D_	2.D_	2.r	4ff	4g#	2.r	2.r	2.r	2.r	2.r
.	.	.	24ff	.	.	.	.	.	.	.	.	.	.	.	.	.	.
.	.	.	24dd	.	.	.	.	.	.	.	.	.	.	.	.	.	.
.	.	.	24b	.	.	.	.	.	.	.	.	.	.	.	.	.	.
.	.	.	24a	.	.	.	.	.	.	.	.	.	.	.	.	.	.
.	.	.	24g#	.	.	.	.	.	.	.	.	.	.	.	.	.	.
8ccc#	.	.	24a	8cc#	.	8e	8a	.	.	.	8ee	8a	.	.	.	.	.
.	.	.	24cc#	.	.	.	.	.	.	.	.	.	.	.	.	.	.
.	.	.	24ee	.	.	.	.	.	.	.	.	.	.	.	.	.	.
4ccc	.	.	24cc	4cc	.	4e-	4f#	.	.	.	4ee-	4f#	.	.	.	.	.
.	.	.	24ee-	.	.	.	.	.	.	.	.	.	.	.	.	.	.
.	.	.	24cc	.	.	.	.	.	.	.	.	.	.	.	.	.	.
.	.	.	24a	.	.	.	.	.	.	.	.	.	.	.	.	.	.
.	.	.	24g	.	.	.	.	.	.	.	.	.	.	.	.	.	.
.	.	.	24f#	.	.	.	.	.	.	.	.	.	.	.	.	.	.
8bb	.	.	24g	8b	.	8d	8g	.	.	.	8dd	8g	.	.	.	.	.
.	.	.	24b	.	.	.	.	.	.	.	.	.	.	.	.	.	.
.	.	.	24dd	.	.	.	.	.	.	.	.	.	.	.	.	.	.
=79	=79	=79	=79	=79	=79	=79	=79	=79	=79	=79	=79	=79	=79	=79	=79	=79	=79
8bb-	2.r	2.r	24e	8b-	8c#	8c#	8e	3..D_	3..D_	2.r	8cc#	8e	2.r	2.r	2.r	2.r	2.r
.	.	.	24g	.	.	.	.	.	.	.	.	.	.	.	.	.	.
.	.	.	24cc#	.	.	.	.	.	.	.	.	.	.	.	.	.	.
8aa	.	.	24f#	8a	8c	8c	8f#	.	.	.	8cc	8f#	.	.	.	.	.
.	.	.	24a	.	.	.	.	.	.	.	.	.	.	.	.	.	.
.	.	.	24cc	.	.	.	.	.	.	.	.	.	.	.	.	.	.
8cc	.	.	24d	8f#	8c	8c	8a	.	.	.	8cc	8a	.	.	.	.	.
.	.	.	24a	.	.	.	.	.	.	.	.	.	.	.	.	.	.
.	.	.	24cc	.	.	.	.	.	.	.	.	.	.	.	.	.	.
8b	.	.	8b	4g	4B	4B	4d	.	.	.	24b	24g	.	.	.	.	.
.	.	.	.	.	.	.	.	.	.	.	24bb	24gg	.	.	.	.	.
.	.	.	.	.	.	.	.	.	.	.	24aa	24ff#	.	.	.	.	.
4r	.	.	4r	.	.	.	.	.	.	.	24gg	24ee	.	.	.	.	.
.	.	.	.	.	.	.	.	.	.	.	24ff#	24dd	.	.	.	.	.
.	.	.	.	.	.	.	.	24D]	24D]	.	24ee	24cc	.	.	.	.	.
.	.	.	.	8r	8r	8r	8r	8r	8r	.	24dd	24b	.	.	.	.	.
.	.	.	.	.	.	.	.	.	.	.	24ee	24cc	.	.	.	.	.
.	.	.	.	.	.	.	.	.	.	.	24cc	24a	.	.	.	.	.
=80	=80	=80	=80	=80	=80	=80	=80	=80	=80	=80	=80	=80	=80	=80	=80	=80	=80
24b	2.r	2.r	4b	4b	4g	4g	4d	4D]	4D]	2.r	24b	4g	2r	2r	2.r	2.r	2.r
24ddd	.	.	.	.	.	.	.	.	.	.	24bb	.	.	.	.	.	.
24ccc	.	.	.	.	.	.	.	.	.	.	24aa	.	.	.	.	.	.
24bb	.	.	.	.	.	.	.	.	.	.	24gg	.	.	.	.	.	.
24aa	.	.	.	.	.	.	.	.	.	.	24ff#	.	.	.	.	.	.
24gg	.	.	.	.	.	.	.	.	.	.	24ee	.	.	.	.	.	.
24ff#	.	.	8r	8r	8r	8r	8r	8r	8r	.	24dd	2r	.	.	.	.	.
24gg	.	.	.	.	.	.	.	.	.	.	24ee	.	.	.	.	.	.
24ee	.	.	.	.	.	.	.	.	.	.	24cc	.	.	.	.	.	.
8dd	.	.	4b	4b	4g	4g	4d	4D	4D	.	8b	.	.	.	.	.	.
4r	.	.	.	.	.	.	.	.	.	.	4r	.	24r	24r	.	.	.
.	.	.	.	.	.	.	.	.	.	.	.	.	24B	24G	.	.	.
.	.	.	.	.	.	.	.	.	.	.	.	.	24c	24A	.	.	.
.	.	.	8r	8r	8r	8r	8r	8r	8r	.	.	.	24d	24B	.	.	.
.	.	.	.	.	.	.	.	.	.	.	.	.	24B	24G	.	.	.
.	.	.	.	.	.	.	.	.	.	.	.	.	24c	24A	.	.	.
=81	=81	=81	=81	=81	=81	=81	=81	=81	=81	=81	=81	=81	=81	=81	=81	=81	=81
6r	2.r	2.r	4.r	4.r	2.r	2.r	2.r	2.r	2.r	2.r	6r	4.r	8d	8B	2.r	2.r	2.r
.	.	.	.	.	.	.	.	.	.	.	.	.	3..r	3..r	.	.	.
24bb	.	.	.	.	.	.	.	.	.	.	24gg	.	.	.	.	.	.
24ccc	.	.	.	.	.	.	.	.	.	.	24aa	.	.	.	.	.	.
24ddd	.	.	.	.	.	.	.	.	.	.	24bb	.	.	.	.	.	.
24bb	.	.	.	.	.	.	.	.	.	.	24gg	.	.	.	.	.	.
24ccc	.	.	.	.	.	.	.	.	.	.	24aa	.	.	.	.	.	.
8ddd	.	.	4.r	4.r	.	.	.	.	.	.	8bb	4.r	.	.	.	.	.
4r	.	.	.	.	.	.	.	.	.	.	8.r	.	.	.	.	.	.
.	.	.	.	.	.	.	.	.	.	.	48r	.	.	.	.	.	.
.	.	.	.	.	.	.	.	.	.	.	24g	.	24r	24r	.	.	.
=82	=82	=82	=82	=82	=82	=82	=82	=82	=82	=82	=82	=82	=82	=82	=82	=82	=82
2.r	2.r	2.r	8b	8g	8b	8b	8d	8D	8D	2.r	24g	4.r	2.r	2.r	2.r	2.r	2.r
.	.	.	.	.	.	.	.	.	.	.	24d	.	.	.	.	.	.
.	.	.	.	.	.	.	.	.	.	.	24b	.	.	.	.	.	.
.	.	.	4r	4r	4r	4r	4r	4r	4r	.	24b	.	.	.	.	.	.
.	.	.	.	.	.	.	.	.	.	.	24g	.	.	.	.	.	.
.	.	.	.	.	.	.	.	.	.	.	24dd	.	.	.	.	.	.
.	.	.	.	.	.	.	.	.	.	.	24dd	.	.	.	.	.	.
.	.	.	.	.	.	.	.	.	.	.	24b	.	.	.	.	.	.
.	.	.	.	.	.	.	.	.	.	.	24gg	.	.	.	.	.	.
.	.	.	8b	8g	8b	8b	8d	8D	8D	.	24gg	4.r	.	.	.	.	.
.	.	.	.	.	.	.	.	.	.	.	24dd	.	.	.	.	.	.
.	.	.	.	.	.	.	.	.	.	.	24bb	.	.	.	.	.	.
.	.	.	8r	4r	4r	4r	4r	4r	4r	.	24bb	.	.	.	.	.	.
.	.	.	.	.	.	.	.	.	.	.	24gg	.	.	.	.	.	.
.	.	.	.	.	.	.	.	.	.	.	24ddd	.	.	.	.	.	.
.	.	.	24bb	.	.	.	.	.	.	.	24ddd	.	.	.	.	.	.
.	.	.	24bb	.	.	.	.	.	.	.	24ddd	.	.	.	.	.	.
.	.	.	24bb	.	.	.	.	.	.	.	24ddd	.	.	.	.	.	.
=83	=83	=83	=83	=83	=83	=83	=83	=83	=83	=83	=83	=83	=83	=83	=83	=83	=83
2.r	2.r	2.r	8bb	4.r	2.r	2.r	2.r	2.r	2.r	2.r	8ddd	4.r	2.r	2.r	2.r	2.r	2.r
.	.	.	4r	.	.	.	.	.	.	.	4r	.	.	.	.	.	.
.	.	.	4.r	4.r	.	.	.	.	.	.	[4.aa	4.r	.	.	.	.	.
=84	=84	=84	=84	=84	=84	=84	=84	=84	=84	=84	=84	=84	=84	=84	=84	=84	=84
[2.ff#	2.r	2.r	4.r	4.r	2.r	2.r	2.r	2.r	2.r	2.r	2.aa_	4.r	4.r	2.r	2.r	2.r	2.r
.	.	.	4.r	4.r	.	.	.	.	.	.	.	4.r	[4.c	.	.	.	.
=85	=85	=85	=85	=85	=85	=85	=85	=85	=85	=85	=85	=85	=85	=85	=85	=85	=85
2.ff#]	2.r	2.r	4.r	4.r	2.r	2.r	2.r	4.E-	4.E-	2.r	2.aa]	4.r	2.c]	2.r	2.r	2.r	2.r
.	.	.	4.r	4.r	.	.	.	4.D	4.D	.	.	4.r	.	.	.	.	.
=86	=86	=86	=86	=86	=86	=86	=86	=86	=86	=86	=86	=86	=86	=86	=86	=86	=86
4gg	2.r	2.r	24g	24g	4g 4B	4g 4B	4B	4GG	4GG	4.r	8gg	4.r	8B	4.r	4.r	4.r	2.r
.	.	.	24b	24b	.	.	.	.	.	.	.	.	.	.	.	.	.
.	.	.	24dd	24dd	.	.	.	.	.	.	.	.	.	.	.	.	.
.	.	.	24gg	24gg	.	.	.	.	.	.	4r	.	4r	.	.	.	.
.	.	.	24bb	24bb	.	.	.	.	.	.	.	.	.	.	.	.	.
.	.	.	24aa	24aa	.	.	.	.	.	.	.	.	.	.	.	.	.
8r	.	.	24gg	24gg	8r	8r	8r	8r	8r	.	.	.	.	.	.	.	.
.	.	.	24ff#	24ff#	.	.	.	.	.	.	.	.	.	.	.	.	.
.	.	.	24ee	24ee	.	.	.	.	.	.	.	.	.	.	.	.	.
[4.ddd	.	.	24dd	24dd	4c 4f#	4c 4f#	4A	4D	4D	[4.ddd	4.ff#	4.a	4.c	4.c	4.dd	4.g	.
.	.	.	24cc#	24cc#	.	.	.	.	.	.	.	.	.	.	.	.	.
.	.	.	24cc	24cc	.	.	.	.	.	.	.	.	.	.	.	.	.
.	.	.	24b	24b	.	.	.	.	.	.	.	.	.	.	.	.	.
.	.	.	24b-	24b-	.	.	.	.	.	.	.	.	.	.	.	.	.
.	.	.	24a	24a	.	.	.	.	.	.	.	.	.	.	.	.	.
.	.	.	24g	24g	8r	8r	8r	8r	8r	.	.	.	.	.	.	.	.
.	.	.	24f#	24f#	.	.	.	.	.	.	.	.	.	.	.	.	.
.	.	.	24a	24a	.	.	.	.	.	.	.	.	.	.	.	.	.
=87	=87	=87	=87	=87	=87	=87	=87	=87	=87	=87	=87	=87	=87	=87	=87	=87	=87
8ddd]	2.r	2.r	24g	24g	4B 4g	4B 4g	4B	4GG	4GG	8ddd]	8gg	8b	8B	8B	8ee	8cc	2.r
.	.	.	24b	24b	.	.	.	.	.	.	.	.	.	.	.	.	.
.	.	.	24dd	24dd	.	.	.	.	.	.	.	.	.	.	.	.	.
4r	.	.	24gg	24gg	.	.	.	.	.	4r	4r	4r	4r	4r	4r	4r	.
.	.	.	24bb	24bb	.	.	.	.	.	.	.	.	.	.	.	.	.
.	.	.	24aa	24aa	.	.	.	.	.	.	.	.	.	.	.	.	.
.	.	.	24gg	24gg	8r	8r	8r	8r	8r	.	.	.	.	.	.	.	.
.	.	.	24ff#	24ff#	.	.	.	.	.	.	.	.	.	.	.	.	.
.	.	.	24ee	24ee	.	.	.	.	.	.	.	.	.	.	.	.	.
4.ddd	.	.	24dd	24dd	4f# 4c	4f# 4c	4A	4D	4D	4.ddd	4.ff#	4.a	4.c	4.c	4.dd	4.g	.
.	.	.	24cc#	24cc#	.	.	.	.	.	.	.	.	.	.	.	.	.
.	.	.	24cc	24cc	.	.	.	.	.	.	.	.	.	.	.	.	.
.	.	.	24b	24b	.	.	.	.	.	.	.	.	.	.	.	.	.
.	.	.	24b-	24b-	.	.	.	.	.	.	.	.	.	.	.	.	.
.	.	.	24a	24a	.	.	.	.	.	.	.	.	.	.	.	.	.
.	.	.	24g	24g	8r	8r	8r	8r	8r	.	.	.	.	.	.	.	.
.	.	.	24f#	24f#	.	.	.	.	.	.	.	.	.	.	.	.	.
.	.	.	24a	24a	.	.	.	.	.	.	.	.	.	.	.	.	.
=88	=88	=88	=88	=88	=88	=88	=88	=88	=88	=88	=88	=88	=88	=88	=88	=88	=88
8bb	2.r	2.r	8g	8g	8B 8g	8B 8g	4B	4GG	4GG	8bb	8gg	8b	8B	8B	8ee	8cc	2.r
8r	.	.	8r	8r	8r	8r	.	.	.	8r	8r	4r	2r	2r	3..r	3..r	.
8ddd	.	.	8dd	8dd	8b	8b	2r	2r	2r	8ddd	8bb	.	.	.	.	.	.
8bb	.	.	8b	8b	8g	8g	.	.	.	8bb	8gg	4r	.	.	.	.	.
4r	.	.	4r	4r	4r	4r	.	.	.	4r	8r	.	.	.	.	.	.
.	.	.	.	.	.	.	.	.	.	.	8dd	8b	8d	8B	.	.	.
.	.	.	.	.	.	.	.	.	.	.	.	.	.	.	24r	24r	.
=89	=89	=89	=89	=89	=89	=89	=89	=89	=89	=89	=89	=89	=89	=89	=89	=89	=89
4r	2.r	2.r	4r	4r	4r	4r	4r	4r	4r	4r	8b	8g	8B	8G	4r	4r	2.r
.	.	.	.	.	.	.	.	.	.	.	8r	8r	8r	8r	.	.	.
8dd	.	.	8g	8g	8B	8B	8d	8GG	8GG	8dd	8gg	8b	8G	8G	8cc	8e	.
8b	.	.	8g	8g	8B	8B	8d	8GG	8GG	8b	8gg	8b	8G	8G	8cc	8e	.
4r	.	.	4r	4r	4r	4r	4r	4r	4r	4r	4r	4r	4r	4r	4r	4r	.
==	==	==	==	==	==	==	==	==	==	==	==	==	==	==	==	==	==
*-	*-	*-	*-	*-	*-	*-	*-	*-	*-	*-	*-	*-	*-	*-	*-	*-	*-
!!!RWG1: This file contains only pitch and duration data.
!!!RWG2: Transposing instruments are not transposed.
!!!RWG3: Spines may have incompatible meters.
!!!RWG4: Durations of rests and tied notes may be interpreted.
!!!RWG: Key is interpreted using the Humdrum key tool.
!!!OPT: The Miracle
!!!AFT: stage1
!!!END: 1997/04/15
!!format changes:
!!content changes:
!!public access: complete
!!!KEY: 588031095
!!!EMD: Converted from MuseData to Humdrum Dec 16, 2000, by Andreas Kornstaedt using muse2kern.
